def printProgram():
set_tcp(p[0,0,0.116,0,0,0])
servoj(get_inverse_kin(p[-0.4352953080344305,0.23017493893369903,-0.0022,1.69,1.82,-0.5]),t=2)
servoj(get_inverse_kin(p[-0.4352953080344305,0.23017493893369903,-0.0022,1.69,1.82,-0.5]),t=0.01)
servoj(get_inverse_kin(p[-0.4353249480284344,0.23009007062440714,-0.0022,1.69,1.82,-0.5]),t=0.01)
servoj(get_inverse_kin(p[-0.43534100294614647,0.2299767193264055,-0.0022,1.69,1.82,-0.5]),t=0.01)
servoj(get_inverse_kin(p[-0.4353706429401503,0.22987848132647004,-0.0022,1.69,1.82,-0.5]),t=0.01)
servoj(get_inverse_kin(p[-0.43540090039450924,0.22977908097118957,-0.0022,1.69,1.82,-0.5]),t=0.01)
servoj(get_inverse_kin(p[-0.43543115800694815,0.22966572952437792,-0.0022,1.69,1.82,-0.5]),t=0.01)
servoj(get_inverse_kin(p[-0.43547500037951886,0.22955295932964379,-0.0022,1.69,1.82,-0.5]),t=0.01)
servoj(get_inverse_kin(p[-0.43552131290966983,0.2294262383409986,-0.0022,1.69,1.82,-0.5]),t=0.01)
servoj(get_inverse_kin(p[-0.4355651554403205,0.22931346814626447,-0.0022,1.69,1.82,-0.5]),t=0.01)
servoj(get_inverse_kin(p[-0.4356256703490383,0.22917163356193299,-0.0022,1.69,1.82,-0.5]),t=0.01)
servoj(get_inverse_kin(p[-0.4356713654188343,0.22904374992032267,-0.0022,1.69,1.82,-0.5]),t=0.01)
servoj(get_inverse_kin(p[-0.43573126286719704,0.22890249673687882,-0.0022,1.69,1.82,-0.5]),t=0.01)
servoj(get_inverse_kin(p[-0.43580536285220667,0.22876124340462492,-0.0022,1.69,1.82,-0.5]),t=0.01)
servoj(get_inverse_kin(p[-0.43586587791900444,0.228619990072371,-0.0022,1.69,1.82,-0.5]),t=0.01)
servoj(get_inverse_kin(p[-0.43592577536736726,0.22846362329324088,-0.0022,1.69,1.82,-0.5]),t=0.01)
servoj(get_inverse_kin(p[-0.43598567281573003,0.22832236996098698,-0.0022,1.69,1.82,-0.5]),t=0.01)
servoj(get_inverse_kin(p[-0.43603198534588095,0.22816716568601192,-0.0022,1.69,1.82,-0.5]),t=0.01)
servoj(get_inverse_kin(p[-0.43609188279424377,0.22802591250256807,-0.0022,1.69,1.82,-0.5]),t=0.01)
servoj(get_inverse_kin(p[-0.4361517802426065,0.22785617603279437,-0.0022,1.69,1.82,-0.5]),t=0.01)
servoj(get_inverse_kin(p[-0.4361962402336123,0.2276870208150982,-0.0022,1.69,1.82,-0.5]),t=0.01)
servoj(get_inverse_kin(p[-0.436256137840055,0.2275306540359681,-0.0022,1.69,1.82,-0.5]),t=0.01)
servoj(get_inverse_kin(p[-0.436301832751771,0.2273609175661944,-0.0022,1.69,1.82,-0.5]),t=0.01)
servoj(get_inverse_kin(p[-0.4363462927427767,0.22716269781009082,-0.0022,1.69,1.82,-0.5]),t=0.01)
servoj(get_inverse_kin(p[-0.4363919878125726,0.22699354274120476,-0.0022,1.69,1.82,-0.5]),t=0.01)
servoj(get_inverse_kin(p[-0.4364364478035784,0.2267953229851012,-0.0022,1.69,1.82,-0.5]),t=0.01)
servoj(get_inverse_kin(p[-0.43648214271529434,0.22661221697349396,-0.0022,1.69,1.82,-0.5]),t=0.01)
servoj(get_inverse_kin(p[-0.43652660270630006,0.226414578618278,-0.0022,1.69,1.82,-0.5]),t=0.01)
servoj(get_inverse_kin(p[-0.4365865001546629,0.22621635886217448,-0.0022,1.69,1.82,-0.5]),t=0.01)
servoj(get_inverse_kin(p[-0.4366321952244588,0.2259902373694387,-0.0022,1.69,1.82,-0.5]),t=0.01)
servoj(get_inverse_kin(p[-0.4367069126698235,0.2257774855673466,-0.0022,1.69,1.82,-0.5]),t=0.01)
servoj(get_inverse_kin(p[-0.4367668101181862,0.22556647752148704,-0.0022,1.69,1.82,-0.5]),t=0.01)
servoj(get_inverse_kin(p[-0.43682670772462895,0.22533861212370865,-0.0022,1.69,1.82,-0.5]),t=0.01)
servoj(get_inverse_kin(p[-0.4368866051729917,0.22509912094032933,-0.0022,1.69,1.82,-0.5]),t=0.01)
servoj(get_inverse_kin(p[-0.4369625576971466,0.22485788585190733,-0.0022,1.69,1.82,-0.5]),t=0.01)
servoj(get_inverse_kin(p[-0.4370230726058644,0.224618394668528,-0.0022,1.69,1.82,-0.5]),t=0.01)
servoj(get_inverse_kin(p[-0.4370829700542272,0.224377159580106,-0.0022,1.69,1.82,-0.5]),t=0.01)
servoj(get_inverse_kin(p[-0.4371274300452329,0.22413766839672666,-0.0022,1.69,1.82,-0.5]),t=0.01)
servoj(get_inverse_kin(p[-0.4371731251150288,0.22388306376647116,-0.0022,1.69,1.82,-0.5]),t=0.01)
servoj(get_inverse_kin(p[-0.4372175851060346,0.2236284589874056,-0.0022,1.69,1.82,-0.5]),t=0.01)
servoj(get_inverse_kin(p[-0.43724722510003844,0.2233744356092276,-0.0022,1.69,1.82,-0.5]),t=0.01)
servoj(get_inverse_kin(p[-0.4372632800177505,0.22313320052080562,-0.0022,1.69,1.82,-0.5]),t=0.01)
servoj(get_inverse_kin(p[-0.4372632800177505,0.22263910470717077,-0.0022,1.69,1.82,-0.5]),t=0.01)
servoj(get_inverse_kin(p[-0.43724722510003844,0.22241123930939236,-0.0022,1.69,1.82,-0.5]),t=0.01)
servoj(get_inverse_kin(p[-0.4372175851060346,0.22218511781665662,-0.0022,1.69,1.82,-0.5]),t=0.01)
servoj(get_inverse_kin(p[-0.4371731251150288,0.22195899617511083,-0.0022,1.69,1.82,-0.5]),t=0.01)
servoj(get_inverse_kin(p[-0.4371274300452329,0.2217328746823751,-0.0022,1.69,1.82,-0.5]),t=0.01)
servoj(get_inverse_kin(p[-0.4370829700542272,0.22152128538443802,-0.0022,1.69,1.82,-0.5]),t=0.01)
servoj(get_inverse_kin(p[-0.4370070176881523,0.22128063169690362,-0.0022,1.69,1.82,-0.5]),t=0.01)
servoj(get_inverse_kin(p[-0.43693291770314274,0.22106904239896652,-0.0022,1.69,1.82,-0.5]),t=0.01)
servoj(get_inverse_kin(p[-0.43685696517898787,0.22085629044806435,-0.0022,1.69,1.82,-0.5]),t=0.01)
servoj(get_inverse_kin(p[-0.4367526077396193,0.2206452824022048,-0.0022,1.69,1.82,-0.5]),t=0.01)
servoj(get_inverse_kin(p[-0.43666245267881765,0.22043253060011264,-0.0022,1.69,1.82,-0.5]),t=0.01)
servoj(get_inverse_kin(p[-0.4365562427003039,0.2202209413021756,-0.0022,1.69,1.82,-0.5]),t=0.01)
servoj(get_inverse_kin(p[-0.4364364478035784,0.2200081893512734,-0.0022,1.69,1.82,-0.5]),t=0.01)
servoj(get_inverse_kin(p[-0.4363160352884178,0.21980996974397987,-0.0022,1.69,1.82,-0.5]),t=0.01)
servoj(get_inverse_kin(p[-0.4361962402336123,0.21959896169812035,-0.0022,1.69,1.82,-0.5]),t=0.01)
servoj(get_inverse_kin(p[-0.4360616253398848,0.21939957958667178,-0.0022,1.69,1.82,-0.5]),t=0.01)
servoj(get_inverse_kin(p[-0.43592577536736726,0.21920135983056827,-0.0022,1.69,1.82,-0.5]),t=0.01)
servoj(get_inverse_kin(p[-0.43576152032155596,0.21901883507103856,-0.0022,1.69,1.82,-0.5]),t=0.01)
servoj(get_inverse_kin(p[-0.4356114679704715,0.21880550186805883,-0.0022,1.69,1.82,-0.5]),t=0.01)
servoj(get_inverse_kin(p[-0.43544536038551496,0.21860786351284286,-0.0022,1.69,1.82,-0.5]),t=0.01)
servoj(get_inverse_kin(p[-0.4352953080344305,0.21841022515762692,-0.0022,1.69,1.82,-0.5]),t=0.01)
servoj(get_inverse_kin(p[-0.4351304355282642,0.21822711899720962,-0.0022,1.69,1.82,-0.5]),t=0.01)
servoj(get_inverse_kin(p[-0.4349501255647408,0.2180422690805597,-0.0022,1.69,1.82,-0.5]),t=0.01)
servoj(get_inverse_kin(p[-0.43477043306157254,0.21785916292014243,-0.0022,1.69,1.82,-0.5]),t=0.01)
servoj(get_inverse_kin(p[-0.4345901230980492,0.21767489425557007,-0.0022,1.69,1.82,-0.5]),t=0.01)
servoj(get_inverse_kin(p[-0.43440796059538056,0.21749178809515277,-0.0022,1.69,1.82,-0.5]),t=0.01)
servoj(get_inverse_kin(p[-0.43419801063785335,0.2173220516253791,-0.0022,1.69,1.82,-0.5]),t=0.01)
servoj(get_inverse_kin(p[-0.4339874432199711,0.21715231515560537,-0.0022,1.69,1.82,-0.5]),t=0.01)
servoj(get_inverse_kin(p[-0.43374723580808494,0.21698257868583168,-0.0022,1.69,1.82,-0.5]),t=0.01)
servoj(get_inverse_kin(p[-0.43350702839619887,0.21682679315877912,-0.0022,1.69,1.82,-0.5]),t=0.01)
servoj(get_inverse_kin(p[-0.4332526184476659,0.21668495857444764,-0.0022,1.69,1.82,-0.5]),t=0.01)
servoj(get_inverse_kin(p[-0.4329963559599877,0.21654370524219374,-0.0022,1.69,1.82,-0.5]),t=0.01)
servoj(get_inverse_kin(p[-0.43272650855409767,0.21643093519626969,-0.0022,1.69,1.82,-0.5]),t=0.01)
servoj(get_inverse_kin(p[-0.4324418409931258,0.216317583749458,-0.0022,1.69,1.82,-0.5]),t=0.01)
servoj(get_inverse_kin(p[-0.4321713761268808,0.21621818324536746,-0.0022,1.69,1.82,-0.5]),t=0.01)
servoj(get_inverse_kin(p[-0.43188547364519875,0.21613331508488565,-0.0022,1.69,1.82,-0.5]),t=0.01)
servoj(get_inverse_kin(p[-0.4316008062423069,0.21606297911920247,-0.0022,1.69,1.82,-0.5]),t=0.01)
servoj(get_inverse_kin(p[-0.4313142863002697,0.21600659394743038,-0.0022,1.69,1.82,-0.5]),t=0.01)
servoj(get_inverse_kin(p[-0.43101418128194086,0.21595020892446834,-0.0022,1.69,1.82,-0.5]),t=0.01)
servoj(get_inverse_kin(p[-0.43071407642169196,0.21592172578694857,-0.0022,1.69,1.82,-0.5]),t=0.01)
servoj(get_inverse_kin(p[-0.43042755647965486,0.21589382390150633,-0.0022,1.69,1.82,-0.5]),t=0.01)
servoj(get_inverse_kin(p[-0.4301132490827591,0.21587871030582007,-0.0022,1.69,1.82,-0.5]),t=0.01)
servoj(get_inverse_kin(p[-0.4294963666680342,0.21587871030582007,-0.0022,1.69,1.82,-0.5]),t=0.01)
servoj(get_inverse_kin(p[-0.4292123167254974,0.21589382390150633,-0.0022,1.69,1.82,-0.5]),t=0.01)
servoj(get_inverse_kin(p[-0.42891159424681347,0.21590719359214988,-0.0022,1.69,1.82,-0.5]),t=0.01)
servoj(get_inverse_kin(p[-0.42862569176513143,0.21593509547759218,-0.0022,1.69,1.82,-0.5]),t=0.01)
servoj(get_inverse_kin(p[-0.42834102436223953,0.21596357861511195,-0.0022,1.69,1.82,-0.5]),t=0.01)
servoj(get_inverse_kin(p[-0.4280705594959945,0.21600659394743038,-0.0022,1.69,1.82,-0.5]),t=0.01)
servoj(get_inverse_kin(p[-0.4278007119320245,0.216019963638074,-0.0022,1.69,1.82,-0.5]),t=0.01)
servoj(get_inverse_kin(p[-0.4275598870597833,0.21603507723376023,-0.0022,1.69,1.82,-0.5]),t=0.01)
servoj(get_inverse_kin(p[-0.42731967964789713,0.21606297911920247,-0.0022,1.69,1.82,-0.5]),t=0.01)
servoj(get_inverse_kin(p[-0.42686766973933865,0.21611994539424206,-0.0022,1.69,1.82,-0.5]),t=0.01)
servoj(get_inverse_kin(p[-0.4266577197818114,0.2161478472796843,-0.0022,1.69,1.82,-0.5]),t=0.01)
servoj(get_inverse_kin(p[-0.4264471522058491,0.2161763304172041,-0.0022,1.69,1.82,-0.5]),t=0.01)
servoj(get_inverse_kin(p[-0.42625263986375894,0.21621818324536746,-0.0022,1.69,1.82,-0.5]),t=0.01)
servoj(get_inverse_kin(p[-0.42605689228479854,0.21626119872649596,-0.0022,1.69,1.82,-0.5]),t=0.01)
servoj(get_inverse_kin(p[-0.42586237994270837,0.21630305155465934,-0.0022,1.69,1.82,-0.5]),t=0.01)
servoj(get_inverse_kin(p[-0.425682069979185,0.21634606688697777,-0.0022,1.69,1.82,-0.5]),t=0.01)
servoj(get_inverse_kin(p[-0.42550176001566165,0.21640245205874986,-0.0022,1.69,1.82,-0.5]),t=0.01)
servoj(get_inverse_kin(p[-0.4253362700491402,0.21647395052858812,-0.0022,1.69,1.82,-0.5]),t=0.01)
servoj(get_inverse_kin(p[-0.4251559600856168,0.2165303357003602,-0.0022,1.69,1.82,-0.5]),t=0.01)
servoj(get_inverse_kin(p[-0.4250059075764524,0.21658730197539977,-0.0022,1.69,1.82,-0.5]),t=0.01)
servoj(get_inverse_kin(p[-0.4248410350702861,0.21667158888380408,-0.0022,1.69,1.82,-0.5]),t=0.01)
servoj(get_inverse_kin(p[-0.4246749276434095,0.21674192499829728,-0.0022,1.69,1.82,-0.5]),t=0.01)
servoj(get_inverse_kin(p[-0.42449523514024123,0.21685469504422136,-0.0022,1.69,1.82,-0.5]),t=0.01)
servoj(get_inverse_kin(p[-0.4243149251767179,0.21695467680038943,-0.0022,1.69,1.82,-0.5]),t=0.01)
servoj(get_inverse_kin(p[-0.4241204126765477,0.21705291465151483,-0.0022,1.69,1.82,-0.5]),t=0.01)
servoj(get_inverse_kin(p[-0.42392404779531223,0.21718079829312517,-0.0022,1.69,1.82,-0.5]),t=0.01)
servoj(get_inverse_kin(p[-0.4237140978377851,0.2173075194305804,-0.0022,1.69,1.82,-0.5]),t=0.01)
servoj(get_inverse_kin(p[-0.4234738904258989,0.21744877276283434,-0.0022,1.69,1.82,-0.5]),t=0.01)
servoj(get_inverse_kin(p[-0.42323368285593277,0.21760513954196442,-0.0022,1.69,1.82,-0.5]),t=0.01)
servoj(get_inverse_kin(p[-0.4229934754440467,0.21777429475966062,-0.0022,1.69,1.82,-0.5]),t=0.01)
servoj(get_inverse_kin(p[-0.42272301057780165,0.21795740077126785,-0.0022,1.69,1.82,-0.5]),t=0.01)
servoj(get_inverse_kin(p[-0.4224525455534766,0.21812713724104155,-0.0022,1.69,1.82,-0.5]),t=0.01)
servoj(get_inverse_kin(p[-0.4221820806872315,0.21833988919194375,-0.0022,1.69,1.82,-0.5]),t=0.01)
servoj(get_inverse_kin(p[-0.42189617820554953,0.2185381087992372,-0.0022,1.69,1.82,-0.5]),t=0.01)
servoj(get_inverse_kin(p[-0.4215960731872206,0.21876423029197298,-0.0022,1.69,1.82,-0.5]),t=0.01)
servoj(get_inverse_kin(p[-0.4212811483299698,0.21899035193351876,-0.0022,1.69,1.82,-0.5]),t=0.01)
servoj(get_inverse_kin(p[-0.420981043311641,0.2192164734262545,-0.0022,1.69,1.82,-0.5]),t=0.01)
servoj(get_inverse_kin(p[-0.4206506809970331,0.21944259491899024,-0.0022,1.69,1.82,-0.5]),t=0.01)
servoj(get_inverse_kin(p[-0.4203345210609922,0.21966871641172597,-0.0022,1.69,1.82,-0.5]),t=0.01)
servoj(get_inverse_kin(p[-0.4200041585883043,0.21990995150014797,-0.0022,1.69,1.82,-0.5]),t=0.01)
servoj(get_inverse_kin(p[-0.41968923357297355,0.2201494426835273,-0.0022,1.69,1.82,-0.5]),t=0.01)
servoj(get_inverse_kin(p[-0.4193730736369326,0.22039067777194926,-0.0022,1.69,1.82,-0.5]),t=0.01)
servoj(get_inverse_kin(p[-0.41905691370089165,0.2206301689553286,-0.0022,1.69,1.82,-0.5]),t=0.01)
servoj(get_inverse_kin(p[-0.41875680884064276,0.2208714040437506,-0.0022,1.69,1.82,-0.5]),t=0.01)
servoj(get_inverse_kin(p[-0.41847214143775086,0.22111089522712993,-0.0022,1.69,1.82,-0.5]),t=0.01)
servoj(get_inverse_kin(p[-0.4181862389560688,0.22136549985738546,-0.0022,1.69,1.82,-0.5]),t=0.01)
servoj(get_inverse_kin(p[-0.41793182900753584,0.22161952323556344,-0.0022,1.69,1.82,-0.5]),t=0.01)
servoj(get_inverse_kin(p[-0.4176910039772147,0.2218607583239854,-0.0022,1.69,1.82,-0.5]),t=0.01)
servoj(get_inverse_kin(p[-0.4174507965653286,0.22212873264488453,-0.0022,1.69,1.82,-0.5]),t=0.01)
servoj(get_inverse_kin(p[-0.41722479169008925,0.2223833374239501,-0.0022,1.69,1.82,-0.5]),t=0.01)
servoj(get_inverse_kin(p[-0.41703027918991903,0.22265247439781435,-0.0022,1.69,1.82,-0.5]),t=0.01)
servoj(get_inverse_kin(p[-0.4168345317690387,0.22293498091351213,-0.0022,1.69,1.82,-0.5]),t=0.01)
servoj(get_inverse_kin(p[-0.4166542218055153,0.2232046991394539,-0.0022,1.69,1.82,-0.5]),t=0.01)
servoj(get_inverse_kin(p[-0.41648996675970407,0.22347267346035302,-0.0022,1.69,1.82,-0.5]),t=0.01)
servoj(get_inverse_kin(p[-0.4163096567961807,0.22374181043421726,-0.0022,1.69,1.82,-0.5]),t=0.01)
servoj(get_inverse_kin(p[-0.41618924428102005,0.22399641521328284,-0.0022,1.69,1.82,-0.5]),t=0.01)
servoj(get_inverse_kin(p[-0.4160694493842946,0.22425101984353835,-0.0022,1.69,1.82,-0.5]),t=0.01)
servoj(get_inverse_kin(p[-0.41596323940578084,0.22450504322171633,-0.0022,1.69,1.82,-0.5]),t=0.01)
servoj(get_inverse_kin(p[-0.41588728688162596,0.22473116486326214,-0.0022,1.69,1.82,-0.5]),t=0.01)
servoj(get_inverse_kin(p[-0.4158273894332632,0.2249578676080754,-0.0022,1.69,1.82,-0.5]),t=0.01)
servoj(get_inverse_kin(p[-0.41576749198490043,0.22518398910081114,-0.0022,1.69,1.82,-0.5]),t=0.01)
servoj(get_inverse_kin(p[-0.41572303199389465,0.22541011074235692,-0.0022,1.69,1.82,-0.5]),t=0.01)
servoj(get_inverse_kin(p[-0.4156933919998908,0.22562286254444908,-0.0022,1.69,1.82,-0.5]),t=0.01)
servoj(get_inverse_kin(p[-0.4156631343874519,0.2258489840371848,-0.0022,1.69,1.82,-0.5]),t=0.01)
servoj(get_inverse_kin(p[-0.41563287693309303,0.22605999208304436,-0.0022,1.69,1.82,-0.5]),t=0.01)
servoj(get_inverse_kin(p[-0.4156032369390892,0.2262733252860241,-0.0022,1.69,1.82,-0.5]),t=0.01)
servoj(get_inverse_kin(p[-0.41557297948473026,0.2264558500455538,-0.0022,1.69,1.82,-0.5]),t=0.01)
servoj(get_inverse_kin(p[-0.4155569244089382,0.22665406980165734,-0.0022,1.69,1.82,-0.5]),t=0.01)
servoj(get_inverse_kin(p[-0.4155427220303713,0.2268383384662297,-0.0022,1.69,1.82,-0.5]),t=0.01)
servoj(get_inverse_kin(p[-0.41552728441493436,0.227021444626647,-0.0022,1.69,1.82,-0.5]),t=0.01)
servoj(get_inverse_kin(p[-0.41552728441493436,0.2275306540359681,-0.0022,1.69,1.82,-0.5]),t=0.01)
servoj(get_inverse_kin(p[-0.4155427220303713,0.22770039050574178,-0.0022,1.69,1.82,-0.5]),t=0.01)
servoj(get_inverse_kin(p[-0.4155569244089382,0.22786954557462788,-0.0022,1.69,1.82,-0.5]),t=0.01)
servoj(get_inverse_kin(p[-0.41558718202137707,0.22802591250256807,-0.0022,1.69,1.82,-0.5]),t=0.01)
servoj(get_inverse_kin(p[-0.415617439475736,0.2281805353766555,-0.0022,1.69,1.82,-0.5]),t=0.01)
servoj(get_inverse_kin(p[-0.4156470794697399,0.22833690215578561,-0.0022,1.69,1.82,-0.5]),t=0.01)
servoj(get_inverse_kin(p[-0.4156933919998908,0.22849210643076065,-0.0022,1.69,1.82,-0.5]),t=0.01)
servoj(get_inverse_kin(p[-0.4157532894482536,0.22864789195781324,-0.0022,1.69,1.82,-0.5]),t=0.01)
servoj(get_inverse_kin(p[-0.4158131868966164,0.22880425873694335,-0.0022,1.69,1.82,-0.5]),t=0.01)
servoj(get_inverse_kin(p[-0.41588728688162596,0.22897399520671705,-0.0022,1.69,1.82,-0.5]),t=0.01)
servoj(get_inverse_kin(p[-0.41597744194242764,0.22912861822961456,-0.0022,1.69,1.82,-0.5]),t=0.01)
servoj(get_inverse_kin(p[-0.4160694493842946,0.22926987156186845,-0.0022,1.69,1.82,-0.5]),t=0.01)
servoj(get_inverse_kin(p[-0.41617380682366306,0.2294262383409986,-0.0022,1.69,1.82,-0.5]),t=0.01)
servoj(get_inverse_kin(p[-0.4162793993418218,0.22958086121508603,-0.0022,1.69,1.82,-0.5]),t=0.01)
servoj(get_inverse_kin(p[-0.4164140142355492,0.2297372281430262,-0.0022,1.69,1.82,-0.5]),t=0.01)
servoj(get_inverse_kin(p[-0.4165338092903547,0.22989185101711365,-0.0022,1.69,1.82,-0.5]),t=0.01)
servoj(get_inverse_kin(p[-0.41667027672322743,0.23003368560144508,-0.0022,1.69,1.82,-0.5]),t=0.01)
servoj(get_inverse_kin(p[-0.41680427415659976,0.23018947112849766,-0.0022,1.69,1.82,-0.5]),t=0.01)
servoj(get_inverse_kin(p[-0.4169401241291174,0.23031619226595293,-0.0022,1.69,1.82,-0.5]),t=0.01)
servoj(get_inverse_kin(p[-0.41707473918092486,0.23044407590756324,-0.0022,1.69,1.82,-0.5]),t=0.01)
servoj(get_inverse_kin(p[-0.4172105891534424,0.23057079689620844,-0.0022,1.69,1.82,-0.5]),t=0.01)
servoj(get_inverse_kin(p[-0.4173452040471699,0.23068356709094257,-0.0022,1.69,1.82,-0.5]),t=0.01)
servoj(get_inverse_kin(p[-0.41748105401968744,0.23079691838894417,-0.0022,1.69,1.82,-0.5]),t=0.01)
servoj(get_inverse_kin(p[-0.417600849074493,0.23091026983575585,-0.0022,1.69,1.82,-0.5]),t=0.01)
servoj(get_inverse_kin(p[-0.4177354639682204,0.2310096703398464,-0.0022,1.69,1.82,-0.5]),t=0.01)
servoj(get_inverse_kin(p[-0.4178558764833811,0.2311079081909718,-0.0022,1.69,1.82,-0.5]),t=0.01)
servoj(get_inverse_kin(p[-0.4179917264558986,0.23119277650026368,-0.0022,1.69,1.82,-0.5]),t=0.01)
servoj(get_inverse_kin(p[-0.4181115215107042,0.23129217685554415,-0.0022,1.69,1.82,-0.5]),t=0.01)
servoj(get_inverse_kin(p[-0.4182158789500727,0.23137704516483604,-0.0022,1.69,1.82,-0.5]),t=0.01)
servoj(get_inverse_kin(p[-0.41833629146523327,0.23144738113051921,-0.0022,1.69,1.82,-0.5]),t=0.01)
servoj(get_inverse_kin(p[-0.4184560863619588,0.2315188797491675,-0.0022,1.69,1.82,-0.5]),t=0.01)
servoj(get_inverse_kin(p[-0.4185764988771194,0.23158979696692816,-0.0022,1.69,1.82,-0.5]),t=0.01)
servoj(get_inverse_kin(p[-0.41869691139227994,0.23166013308142142,-0.0022,1.69,1.82,-0.5]),t=0.01)
servoj(get_inverse_kin(p[-0.4188167062890055,0.23173163155125961,-0.0022,1.69,1.82,-0.5]),t=0.01)
servoj(get_inverse_kin(p[-0.4189371188041661,0.2317880167230317,-0.0022,1.69,1.82,-0.5]),t=0.01)
servoj(get_inverse_kin(p[-0.41905691370089165,0.23187288488351354,-0.0022,1.69,1.82,-0.5]),t=0.01)
servoj(get_inverse_kin(p[-0.4191773262160523,0.2319426395971192,-0.0022,1.69,1.82,-0.5]),t=0.01)
servoj(get_inverse_kin(p[-0.4192971212708578,0.23201413821576747,-0.0022,1.69,1.82,-0.5]),t=0.01)
servoj(get_inverse_kin(p[-0.41943358870373043,0.2320838929293731,-0.0022,1.69,1.82,-0.5]),t=0.01)
servoj(get_inverse_kin(p[-0.41955338360045596,0.2321687610898549,-0.0022,1.69,1.82,-0.5]),t=0.01)
servoj(get_inverse_kin(p[-0.41968923357297355,0.2322402597085032,-0.0022,1.69,1.82,-0.5]),t=0.01)
servoj(get_inverse_kin(p[-0.41980964608813415,0.23232512801779506,-0.0022,1.69,1.82,-0.5]),t=0.01)
servoj(get_inverse_kin(p[-0.4199294411429397,0.23239488273140071,-0.0022,1.69,1.82,-0.5]),t=0.01)
servoj(get_inverse_kin(p[-0.4200498535000203,0.23246638120123894,-0.0022,1.69,1.82,-0.5]),t=0.01)
servoj(get_inverse_kin(p[-0.4201696485548258,0.23253671731573214,-0.0022,1.69,1.82,-0.5]),t=0.01)
servoj(get_inverse_kin(p[-0.42027400599419434,0.23262158547621398,-0.0022,1.69,1.82,-0.5]),t=0.01)
servoj(get_inverse_kin(p[-0.42038021597270814,0.23267797049917602,-0.0022,1.69,1.82,-0.5]),t=0.01)
servoj(get_inverse_kin(p[-0.4204845734120766,0.2327343556709481,-0.0022,1.69,1.82,-0.5]),t=0.01)
servoj(get_inverse_kin(p[-0.4205747284728783,0.23277737100326656,-0.0022,1.69,1.82,-0.5]),t=0.01)
servoj(get_inverse_kin(p[-0.42068032099103697,0.23281922383142992,-0.0022,1.69,1.82,-0.5]),t=0.01)
servoj(get_inverse_kin(p[-0.42077047589375866,0.23284770696894969,-0.0022,1.69,1.82,-0.5]),t=0.01)
servoj(get_inverse_kin(p[-0.4208606309545603,0.23287560885439196,-0.0022,1.69,1.82,-0.5]),t=0.01)
servoj(get_inverse_kin(p[-0.4209649883939288,0.23289072245007822,-0.0022,1.69,1.82,-0.5]),t=0.01)
servoj(get_inverse_kin(p[-0.42105514329665056,0.23289072245007822,-0.0022,1.69,1.82,-0.5]),t=0.01)
servoj(get_inverse_kin(p[-0.42114529835745224,0.2329040921407218,-0.0022,1.69,1.82,-0.5]),t=0.01)
servoj(get_inverse_kin(p[-0.42149171574785216,0.2329040921407218,-0.0022,1.69,1.82,-0.5]),t=0.01)
servoj(get_inverse_kin(p[-0.42161151080265763,0.23289072245007822,-0.0022,1.69,1.82,-0.5]),t=0.01)
servoj(get_inverse_kin(p[-0.4217461256963851,0.23287560885439196,-0.0022,1.69,1.82,-0.5]),t=0.01)
servoj(get_inverse_kin(p[-0.42189617820554953,0.23284770696894969,-0.0022,1.69,1.82,-0.5]),t=0.01)
servoj(get_inverse_kin(p[-0.4220462307147139,0.23281922383142992,-0.0022,1.69,1.82,-0.5]),t=0.01)
servoj(get_inverse_kin(p[-0.4222265406782373,0.23279074069391015,-0.0022,1.69,1.82,-0.5]),t=0.01)
servoj(get_inverse_kin(p[-0.42239264810511384,0.2327494691178243,-0.0022,1.69,1.82,-0.5]),t=0.01)
servoj(get_inverse_kin(p[-0.4225729580686372,0.23270587238461826,-0.0022,1.69,1.82,-0.5]),t=0.01)
servoj(get_inverse_kin(p[-0.42276747056880737,0.23266460095734248,-0.0022,1.69,1.82,-0.5]),t=0.01)
servoj(get_inverse_kin(p[-0.4229632179896877,0.2325931023386942,-0.0022,1.69,1.82,-0.5]),t=0.01)
servoj(get_inverse_kin(p[-0.42317316794721493,0.23253671731573214,-0.0022,1.69,1.82,-0.5]),t=0.01)
servoj(get_inverse_kin(p[-0.42336768044738515,0.23247975089188253,-0.0022,1.69,1.82,-0.5]),t=0.01)
servoj(get_inverse_kin(p[-0.42357948278597757,0.23242336586892048,-0.0022,1.69,1.82,-0.5]),t=0.01)
servoj(get_inverse_kin(p[-0.4237739952861478,0.23236698084595844,-0.0022,1.69,1.82,-0.5]),t=0.01)
servoj(get_inverse_kin(p[-0.42395430524967115,0.23232512801779506,-0.0022,1.69,1.82,-0.5]),t=0.01)
servoj(get_inverse_kin(p[-0.4241346152131945,0.23228211253666659,-0.0022,1.69,1.82,-0.5]),t=0.01)
servoj(get_inverse_kin(p[-0.42430072264007107,0.23225362939914682,-0.0022,1.69,1.82,-0.5]),t=0.01)
servoj(get_inverse_kin(p[-0.42445077514923546,0.23222572751370452,-0.0022,1.69,1.82,-0.5]),t=0.01)
servoj(get_inverse_kin(p[-0.4245853902010429,0.23221235782306096,-0.0022,1.69,1.82,-0.5]),t=0.01)
servoj(get_inverse_kin(p[-0.42472124017356055,0.23218387468554116,-0.0022,1.69,1.82,-0.5]),t=0.01)
servoj(get_inverse_kin(p[-0.4248410350702861,0.2321687610898549,-0.0022,1.69,1.82,-0.5]),t=0.01)
servoj(get_inverse_kin(p[-0.4249453925096545,0.23214085920441266,-0.0022,1.69,1.82,-0.5]),t=0.01)
servoj(get_inverse_kin(p[-0.4250516024881683,0.2321274896625791,-0.0022,1.69,1.82,-0.5]),t=0.01)
servoj(get_inverse_kin(p[-0.42514175754897005,0.2321274896625791,-0.0022,1.69,1.82,-0.5]),t=0.01)
servoj(get_inverse_kin(p[-0.4252319124516917,0.23211237606689286,-0.0022,1.69,1.82,-0.5]),t=0.01)
servoj(get_inverse_kin(p[-0.4253220675124934,0.23211237606689286,-0.0022,1.69,1.82,-0.5]),t=0.01)
servoj(get_inverse_kin(p[-0.425396167497503,0.23209900637624925,-0.0022,1.69,1.82,-0.5]),t=0.01)
servoj(get_inverse_kin(p[-0.4254721200216578,0.23209900637624925,-0.0022,1.69,1.82,-0.5]),t=0.01)
servoj(get_inverse_kin(p[-0.4255462200066674,0.23211237606689286,-0.0022,1.69,1.82,-0.5]),t=0.01)
servoj(get_inverse_kin(p[-0.4256061174550302,0.23209900637624925,-0.0022,1.69,1.82,-0.5]),t=0.01)
servoj(get_inverse_kin(p[-0.4257265299701908,0.23209900637624925,-0.0022,1.69,1.82,-0.5]),t=0.01)
servoj(get_inverse_kin(p[-0.42578642741855355,0.23211237606689286,-0.0022,1.69,1.82,-0.5]),t=0.01)
servoj(get_inverse_kin(p[-0.4258463248669163,0.23209900637624925,-0.0022,1.69,1.82,-0.5]),t=0.01)
servoj(get_inverse_kin(p[-0.42592227739107114,0.23209900637624925,-0.0022,1.69,1.82,-0.5]),t=0.01)
servoj(get_inverse_kin(p[-0.42598279229978897,0.2320838929293731,-0.0022,1.69,1.82,-0.5]),t=0.01)
servoj(get_inverse_kin(p[-0.42604268990623173,0.23207052323872948,-0.0022,1.69,1.82,-0.5]),t=0.01)
servoj(get_inverse_kin(p[-0.4261167898912413,0.23207052323872948,-0.0022,1.69,1.82,-0.5]),t=0.01)
servoj(get_inverse_kin(p[-0.42617668733960407,0.23205599104393085,-0.0022,1.69,1.82,-0.5]),t=0.01)
servoj(get_inverse_kin(p[-0.42623720224832196,0.23204262135328724,-0.0022,1.69,1.82,-0.5]),t=0.01)
servoj(get_inverse_kin(p[-0.4263569973031275,0.23198565507824767,-0.0022,1.69,1.82,-0.5]),t=0.01)
servoj(get_inverse_kin(p[-0.42640330983327845,0.23197112273463896,-0.0022,1.69,1.82,-0.5]),t=0.01)
servoj(get_inverse_kin(p[-0.4264471522058491,0.23195775319280543,-0.0022,1.69,1.82,-0.5]),t=0.01)
servoj(get_inverse_kin(p[-0.426477409818288,0.23192926990647558,-0.0022,1.69,1.82,-0.5]),t=0.01)
servoj(get_inverse_kin(p[-0.426523104730004,0.23192926990647558,-0.0022,1.69,1.82,-0.5]),t=0.01)
servoj(get_inverse_kin(p[-0.4265533621843629,0.23190078676895579,-0.0022,1.69,1.82,-0.5]),t=0.01)
servoj(get_inverse_kin(p[-0.42656756472100976,0.23188625457415712,-0.0022,1.69,1.82,-0.5]),t=0.01)
servoj(get_inverse_kin(p[-0.4265972047150136,0.23188625457415712,-0.0022,1.69,1.82,-0.5]),t=0.01)
servoj(get_inverse_kin(p[-0.4266132597908056,0.23187288488351354,-0.0022,1.69,1.82,-0.5]),t=0.01)
servoj(get_inverse_kin(p[-0.42662746216937253,0.23185777143663733,-0.0022,1.69,1.82,-0.5]),t=0.01)
servoj(get_inverse_kin(p[-0.42664351724516464,0.23187288488351354,-0.0022,1.69,1.82,-0.5]),t=0.01)
servoj(get_inverse_kin(p[-0.4266577197818114,0.23187288488351354,-0.0022,1.69,1.82,-0.5]),t=0.01)
servoj(get_inverse_kin(p[-0.4266577197818114,0.23185777143663733,-0.0022,1.69,1.82,-0.5]),t=0.01)
servoj(get_inverse_kin(p[-0.4266731572391684,0.23187288488351354,-0.0022,1.69,1.82,-0.5]),t=0.01)
servoj(get_inverse_kin(p[-0.4266577197818114,0.23187288488351354,-0.0022,1.69,1.82,-0.5]),t=0.01)
servoj(get_inverse_kin(p[-0.42664351724516464,0.23185777143663733,-0.0022,1.69,1.82,-0.5]),t=0.01)
servoj(get_inverse_kin(p[-0.42632735730912363,0.23185777143663733,-0.0022,1.69,1.82,-0.5]),t=0.01)
servoj(get_inverse_kin(p[-0.42625263986375894,0.23187288488351354,-0.0022,1.69,1.82,-0.5]),t=0.01)
servoj(get_inverse_kin(p[-0.42616248480295726,0.23188625457415712,-0.0022,1.69,1.82,-0.5]),t=0.01)
servoj(get_inverse_kin(p[-0.42605689228479854,0.23190078676895579,-0.0022,1.69,1.82,-0.5]),t=0.01)
servoj(get_inverse_kin(p[-0.425936479927718,0.23192926990647558,-0.0022,1.69,1.82,-0.5]),t=0.01)
servoj(get_inverse_kin(p[-0.42581668487291247,0.2319426395971192,-0.0022,1.69,1.82,-0.5]),t=0.01)
servoj(get_inverse_kin(p[-0.42569627235775187,0.23197112273463896,-0.0022,1.69,1.82,-0.5]),t=0.01)
servoj(get_inverse_kin(p[-0.42557647746102634,0.2319990246200812,-0.0022,1.69,1.82,-0.5]),t=0.01)
servoj(get_inverse_kin(p[-0.42544186240921894,0.23202750790641105,-0.0022,1.69,1.82,-0.5]),t=0.01)
servoj(get_inverse_kin(p[-0.4253220675124934,0.23205599104393085,-0.0022,1.69,1.82,-0.5]),t=0.01)
servoj(get_inverse_kin(p[-0.42520165499733276,0.2320838929293731,-0.0022,1.69,1.82,-0.5]),t=0.01)
servoj(get_inverse_kin(p[-0.42508124248217216,0.23211237606689286,-0.0022,1.69,1.82,-0.5]),t=0.01)
servoj(get_inverse_kin(p[-0.4249453925096545,0.2321274896625791,-0.0022,1.69,1.82,-0.5]),t=0.01)
servoj(get_inverse_kin(p[-0.4248255976129291,0.2321553915480214,-0.0022,1.69,1.82,-0.5]),t=0.01)
servoj(get_inverse_kin(p[-0.42470518509776845,0.2321687610898549,-0.0022,1.69,1.82,-0.5]),t=0.01)
servoj(get_inverse_kin(p[-0.4246008276583999,0.23218387468554116,-0.0022,1.69,1.82,-0.5]),t=0.01)
servoj(get_inverse_kin(p[-0.42448103260359443,0.23218387468554116,-0.0022,1.69,1.82,-0.5]),t=0.01)
servoj(get_inverse_kin(p[-0.42436062024651383,0.23219724437618475,-0.0022,1.69,1.82,-0.5]),t=0.01)
servoj(get_inverse_kin(p[-0.4242550277283551,0.23219724437618475,-0.0022,1.69,1.82,-0.5]),t=0.01)
servoj(get_inverse_kin(p[-0.4241346152131945,0.23221235782306096,-0.0022,1.69,1.82,-0.5]),t=0.01)
servoj(get_inverse_kin(p[-0.42401420269803397,0.23221235782306096,-0.0022,1.69,1.82,-0.5]),t=0.01)
servoj(get_inverse_kin(p[-0.4238802052646616,0.23222572751370452,-0.0022,1.69,1.82,-0.5]),t=0.01)
servoj(get_inverse_kin(p[-0.42375979274950093,0.2322402597085032,-0.0022,1.69,1.82,-0.5]),t=0.01)
servoj(get_inverse_kin(p[-0.42362394277698334,0.23225362939914682,-0.0022,1.69,1.82,-0.5]),t=0.01)
servoj(get_inverse_kin(p[-0.4234738904258989,0.23226874284602297,-0.0022,1.69,1.82,-0.5]),t=0.01)
servoj(get_inverse_kin(p[-0.42333804045338125,0.23228211253666659,-0.0022,1.69,1.82,-0.5]),t=0.01)
servoj(get_inverse_kin(p[-0.42318798794421686,0.23229664473146522,-0.0022,1.69,1.82,-0.5]),t=0.01)
servoj(get_inverse_kin(p[-0.42302311543805055,0.2323384975596286,-0.0022,1.69,1.82,-0.5]),t=0.01)
servoj(get_inverse_kin(p[-0.42287306292888605,0.23236698084595844,-0.0022,1.69,1.82,-0.5]),t=0.01)
servoj(get_inverse_kin(p[-0.4227069555020096,0.23239488273140071,-0.0022,1.69,1.82,-0.5]),t=0.01)
servoj(get_inverse_kin(p[-0.42252664553848623,0.23240999617827687,-0.0022,1.69,1.82,-0.5]),t=0.01)
servoj(get_inverse_kin(p[-0.42236239065075487,0.2324384793157967,-0.0022,1.69,1.82,-0.5]),t=0.01)
servoj(get_inverse_kin(p[-0.4221666430717946,0.23247975089188253,-0.0022,1.69,1.82,-0.5]),t=0.01)
servoj(get_inverse_kin(p[-0.4219863331082712,0.23252334762508856,-0.0022,1.69,1.82,-0.5]),t=0.01)
servoj(get_inverse_kin(p[-0.4217757656903889,0.2325797326480506,-0.0022,1.69,1.82,-0.5]),t=0.01)
servoj(get_inverse_kin(p[-0.4215818708086538,0.23262158547621398,-0.0022,1.69,1.82,-0.5]),t=0.01)
servoj(get_inverse_kin(p[-0.4213713032326915,0.23266460095734248,-0.0022,1.69,1.82,-0.5]),t=0.01)
servoj(get_inverse_kin(p[-0.4211613532751643,0.2327209859803045,-0.0022,1.69,1.82,-0.5]),t=0.01)
servoj(get_inverse_kin(p[-0.420935348399925,0.23277737100326656,-0.0022,1.69,1.82,-0.5]),t=0.01)
servoj(get_inverse_kin(p[-0.4207247809820427,0.23281922383142992,-0.0022,1.69,1.82,-0.5]),t=0.01)
servoj(get_inverse_kin(p[-0.4205006284878687,0.23286223931255842,-0.0022,1.69,1.82,-0.5]),t=0.01)
servoj(get_inverse_kin(p[-0.4202900610699864,0.23289072245007822,-0.0022,1.69,1.82,-0.5]),t=0.01)
servoj(get_inverse_kin(p[-0.42006405603666713,0.2329325752782416,-0.0022,1.69,1.82,-0.5]),t=0.01)
servoj(get_inverse_kin(p[-0.4198534886187848,0.23297559061056003,-0.0022,1.69,1.82,-0.5]),t=0.01)
servoj(get_inverse_kin(p[-0.4196274835854656,0.23300349249600227,-0.0022,1.69,1.82,-0.5]),t=0.01)
servoj(get_inverse_kin(p[-0.4194175336279384,0.23303197578233212,-0.0022,1.69,1.82,-0.5]),t=0.01)
servoj(get_inverse_kin(p[-0.41922302128584815,0.23306045891985191,-0.0022,1.69,1.82,-0.5]),t=0.01)
servoj(get_inverse_kin(p[-0.4190272737068878,0.23308836080529416,-0.0022,1.69,1.82,-0.5]),t=0.01)
servoj(get_inverse_kin(p[-0.4186524514012742,0.23308836080529416,-0.0022,1.69,1.82,-0.5]),t=0.01)
servoj(get_inverse_kin(p[-0.41847214143775086,0.23310173049593774,-0.0022,1.69,1.82,-0.5]),t=0.01)
servoj(get_inverse_kin(p[-0.41830603385279436,0.23308836080529416,-0.0022,1.69,1.82,-0.5]),t=0.01)
servoj(get_inverse_kin(p[-0.4181559815017099,0.23308836080529416,-0.0022,1.69,1.82,-0.5]),t=0.01)
servoj(get_inverse_kin(p[-0.4179917264558986,0.2330738286104955,-0.0022,1.69,1.82,-0.5]),t=0.01)
servoj(get_inverse_kin(p[-0.4178416739467342,0.23306045891985191,-0.0022,1.69,1.82,-0.5]),t=0.01)
servoj(get_inverse_kin(p[-0.4176910039772147,0.23304534532416565,-0.0022,1.69,1.82,-0.5]),t=0.01)
servoj(get_inverse_kin(p[-0.4175551540046971,0.23301686218664588,-0.0022,1.69,1.82,-0.5]),t=0.01)
servoj(get_inverse_kin(p[-0.4174211565713247,0.23298896030120364,-0.0022,1.69,1.82,-0.5]),t=0.01)
servoj(get_inverse_kin(p[-0.417284689138452,0.23297559061056003,-0.0022,1.69,1.82,-0.5]),t=0.01)
servoj(get_inverse_kin(p[-0.4171506917050797,0.23294710747304023,-0.0022,1.69,1.82,-0.5]),t=0.01)
servoj(get_inverse_kin(p[-0.41701484173256204,0.2329040921407218,-0.0022,1.69,1.82,-0.5]),t=0.01)
servoj(get_inverse_kin(p[-0.41688022668075464,0.23286223931255842,-0.0022,1.69,1.82,-0.5]),t=0.01)
servoj(get_inverse_kin(p[-0.41674437670823705,0.23283433742711618,-0.0022,1.69,1.82,-0.5]),t=0.01)
servoj(get_inverse_kin(p[-0.4165943241990726,0.23279074069391015,-0.0022,1.69,1.82,-0.5]),t=0.01)
servoj(get_inverse_kin(p[-0.41644427184798816,0.23277737100326656,-0.0022,1.69,1.82,-0.5]),t=0.01)
servoj(get_inverse_kin(p[-0.41629360187846864,0.2327343556709481,-0.0022,1.69,1.82,-0.5]),t=0.01)
servoj(get_inverse_kin(p[-0.41612934683265734,0.23269250284278473,-0.0022,1.69,1.82,-0.5]),t=0.01)
servoj(get_inverse_kin(p[-0.41596323940578084,0.23264948736165622,-0.0022,1.69,1.82,-0.5]),t=0.01)
servoj(get_inverse_kin(p[-0.41579774943925935,0.23262158547621398,-0.0022,1.69,1.82,-0.5]),t=0.01)
servoj(get_inverse_kin(p[-0.415617439475736,0.23255124951053083,-0.0022,1.69,1.82,-0.5]),t=0.01)
servoj(get_inverse_kin(p[-0.4154371295122127,0.2325082340294023,-0.0022,1.69,1.82,-0.5]),t=0.01)
servoj(get_inverse_kin(p[-0.41524261701204246,0.23246638120123894,-0.0022,1.69,1.82,-0.5]),t=0.01)
servoj(get_inverse_kin(p[-0.4150623070485191,0.23242336586892048,-0.0022,1.69,1.82,-0.5]),t=0.01)
servoj(get_inverse_kin(p[-0.4148523570909919,0.2323815130407571,-0.0022,1.69,1.82,-0.5]),t=0.01)
servoj(get_inverse_kin(p[-0.41461214967910576,0.2323384975596286,-0.0022,1.69,1.82,-0.5]),t=0.01)
servoj(get_inverse_kin(p[-0.41437132464878457,0.23231001442210883,-0.0022,1.69,1.82,-0.5]),t=0.01)
servoj(get_inverse_kin(p[-0.41413111723689844,0.23228211253666659,-0.0022,1.69,1.82,-0.5]),t=0.01)
servoj(get_inverse_kin(p[-0.41387547236765526,0.23228211253666659,-0.0022,1.69,1.82,-0.5]),t=0.01)
servoj(get_inverse_kin(p[-0.4136050073433303,0.23226874284602297,-0.0022,1.69,1.82,-0.5]),t=0.01)
servoj(get_inverse_kin(p[-0.41333454247708523,0.23226874284602297,-0.0022,1.69,1.82,-0.5]),t=0.01)
servoj(get_inverse_kin(p[-0.4130498749161134,0.23225362939914682,-0.0022,1.69,1.82,-0.5]),t=0.01)
servoj(get_inverse_kin(p[-0.41277941004986834,0.23226874284602297,-0.0022,1.69,1.82,-0.5]),t=0.01)
servoj(get_inverse_kin(p[-0.41252376502254523,0.23226874284602297,-0.0022,1.69,1.82,-0.5]),t=0.01)
servoj(get_inverse_kin(p[-0.41226750269294693,0.23228211253666659,-0.0022,1.69,1.82,-0.5]),t=0.01)
servoj(get_inverse_kin(p[-0.412013092744414,0.23226874284602297,-0.0022,1.69,1.82,-0.5]),t=0.01)
servoj(get_inverse_kin(p[-0.4117568302567358,0.23228211253666659,-0.0022,1.69,1.82,-0.5]),t=0.01)
servoj(get_inverse_kin(p[-0.4112622128963167,0.23228211253666659,-0.0022,1.69,1.82,-0.5]),t=0.01)
servoj(get_inverse_kin(p[-0.4110220053263506,0.23231001442210883,-0.0022,1.69,1.82,-0.5]),t=0.01)
servoj(get_inverse_kin(p[-0.41079600045111136,0.23229664473146522,-0.0022,1.69,1.82,-0.5]),t=0.01)
servoj(get_inverse_kin(p[-0.4105557930392252,0.23229664473146522,-0.0022,1.69,1.82,-0.5]),t=0.01)
servoj(get_inverse_kin(p[-0.4103310230846961,0.23228211253666659,-0.0022,1.69,1.82,-0.5]),t=0.01)
servoj(get_inverse_kin(p[-0.41010501805137684,0.23228211253666659,-0.0022,1.69,1.82,-0.5]),t=0.01)
servoj(get_inverse_kin(p[-0.4098802480968477,0.23225362939914682,-0.0022,1.69,1.82,-0.5]),t=0.01)
servoj(get_inverse_kin(p[-0.4096702981393205,0.2322402597085032,-0.0022,1.69,1.82,-0.5]),t=0.01)
servoj(get_inverse_kin(p[-0.40945973072143815,0.23221235782306096,-0.0022,1.69,1.82,-0.5]),t=0.01)
servoj(get_inverse_kin(p[-0.40924978076391094,0.2321687610898549,-0.0022,1.69,1.82,-0.5]),t=0.01)
servoj(get_inverse_kin(p[-0.4090398308063838,0.23214085920441266,-0.0022,1.69,1.82,-0.5]),t=0.01)
servoj(get_inverse_kin(p[-0.4088434657670683,0.23211237606689286,-0.0022,1.69,1.82,-0.5]),t=0.01)
servoj(get_inverse_kin(p[-0.4086489534249781,0.23207052323872948,-0.0022,1.69,1.82,-0.5]),t=0.01)
servoj(get_inverse_kin(p[-0.4084532058460178,0.23205599104393085,-0.0022,1.69,1.82,-0.5]),t=0.01)
servoj(get_inverse_kin(p[-0.40824263842813546,0.23202750790641105,-0.0022,1.69,1.82,-0.5]),t=0.01)
servoj(get_inverse_kin(p[-0.4080468910072551,0.2319990246200812,-0.0022,1.69,1.82,-0.5]),t=0.01)
servoj(get_inverse_kin(p[-0.40785237850708495,0.23197112273463896,-0.0022,1.69,1.82,-0.5]),t=0.01)
servoj(get_inverse_kin(p[-0.4076566310862046,0.23195775319280543,-0.0022,1.69,1.82,-0.5]),t=0.01)
servoj(get_inverse_kin(p[-0.40744606366832226,0.23195775319280543,-0.0022,1.69,1.82,-0.5]),t=0.01)
servoj(get_inverse_kin(p[-0.40722191117414824,0.2319426395971192,-0.0022,1.69,1.82,-0.5]),t=0.01)
servoj(get_inverse_kin(p[-0.4067853387229467,0.2319426395971192,-0.0022,1.69,1.82,-0.5]),t=0.01)
servoj(get_inverse_kin(p[-0.4065747713050644,0.23195775319280543,-0.0022,1.69,1.82,-0.5]),t=0.01)
servoj(get_inverse_kin(p[-0.4063648213475372,0.23197112273463896,-0.0022,1.69,1.82,-0.5]),t=0.01)
servoj(get_inverse_kin(p[-0.40615487139001,0.23198565507824767,-0.0022,1.69,1.82,-0.5]),t=0.01)
servoj(get_inverse_kin(p[-0.4059443039721277,0.2319990246200812,-0.0022,1.69,1.82,-0.5]),t=0.01)
servoj(get_inverse_kin(p[-0.4057497914719575,0.23201413821576747,-0.0022,1.69,1.82,-0.5]),t=0.01)
servoj(get_inverse_kin(p[-0.40556948150843414,0.23204262135328724,-0.0022,1.69,1.82,-0.5]),t=0.01)
servoj(get_inverse_kin(p[-0.4054039915419127,0.23205599104393085,-0.0022,1.69,1.82,-0.5]),t=0.01)
servoj(get_inverse_kin(p[-0.4052533215723932,0.2320838929293731,-0.0022,1.69,1.82,-0.5]),t=0.01)
servoj(get_inverse_kin(p[-0.4051193241390208,0.23209900637624925,-0.0022,1.69,1.82,-0.5]),t=0.01)
servoj(get_inverse_kin(p[-0.40498347416650327,0.23211237606689286,-0.0022,1.69,1.82,-0.5]),t=0.01)
servoj(get_inverse_kin(p[-0.4048630616513426,0.2321274896625791,-0.0022,1.69,1.82,-0.5]),t=0.01)
servoj(get_inverse_kin(p[-0.4047568516728289,0.23214085920441266,-0.0022,1.69,1.82,-0.5]),t=0.01)
servoj(get_inverse_kin(p[-0.4045629566330138,0.23214085920441266,-0.0022,1.69,1.82,-0.5]),t=0.01)
servoj(get_inverse_kin(p[-0.4044567466545,0.2321553915480214,-0.0022,1.69,1.82,-0.5]),t=0.01)
servoj(get_inverse_kin(p[-0.40384171677892033,0.2321553915480214,-0.0022,1.69,1.82,-0.5]),t=0.01)
servoj(get_inverse_kin(p[-0.40367560935204383,0.2321687610898549,-0.0022,1.69,1.82,-0.5]),t=0.01)
servoj(get_inverse_kin(p[-0.40315135199762087,0.2321687610898549,-0.0022,1.69,1.82,-0.5]),t=0.01)
servoj(get_inverse_kin(p[-0.40294078457973853,0.23218387468554116,-0.0022,1.69,1.82,-0.5]),t=0.01)
servoj(get_inverse_kin(p[-0.40249000959189013,0.23218387468554116,-0.0022,1.69,1.82,-0.5]),t=0.01)
servoj(get_inverse_kin(p[-0.40224980218000406,0.23219724437618475,-0.0022,1.69,1.82,-0.5]),t=0.01)
servoj(get_inverse_kin(p[-0.40199415715268094,0.23218387468554116,-0.0022,1.69,1.82,-0.5]),t=0.01)
servoj(get_inverse_kin(p[-0.4017236922864359,0.23218387468554116,-0.0022,1.69,1.82,-0.5]),t=0.01)
servoj(get_inverse_kin(p[-0.40146928233790297,0.23219724437618475,-0.0022,1.69,1.82,-0.5]),t=0.01)
servoj(get_inverse_kin(p[-0.40118276239586576,0.23219724437618475,-0.0022,1.69,1.82,-0.5]),t=0.01)
servoj(get_inverse_kin(p[-0.4008968599141838,0.23218387468554116,-0.0022,1.69,1.82,-0.5]),t=0.01)
servoj(get_inverse_kin(p[-0.4006121925112919,0.23219724437618475,-0.0022,1.69,1.82,-0.5]),t=0.01)
servoj(get_inverse_kin(p[-0.40032629002960984,0.23222572751370452,-0.0022,1.69,1.82,-0.5]),t=0.01)
servoj(get_inverse_kin(p[-0.4000255675509259,0.2322402597085032,-0.0022,1.69,1.82,-0.5]),t=0.01)
servoj(get_inverse_kin(p[-0.399725462690677,0.23226874284602297,-0.0022,1.69,1.82,-0.5]),t=0.01)
servoj(get_inverse_kin(p[-0.3994407952877851,0.23232512801779506,-0.0022,1.69,1.82,-0.5]),t=0.01)
servoj(get_inverse_kin(p[-0.39914069026945626,0.23236698084595844,-0.0022,1.69,1.82,-0.5]),t=0.01)
servoj(get_inverse_kin(p[-0.3988399677907723,0.23240999617827687,-0.0022,1.69,1.82,-0.5]),t=0.01)
servoj(get_inverse_kin(p[-0.39855406546717015,0.23246638120123894,-0.0022,1.69,1.82,-0.5]),t=0.01)
servoj(get_inverse_kin(p[-0.39828360044284516,0.23252334762508856,-0.0022,1.69,1.82,-0.5]),t=0.01)
servoj(get_inverse_kin(p[-0.39801375303695524,0.23256461920117438,-0.0022,1.69,1.82,-0.5]),t=0.01)
servoj(get_inverse_kin(p[-0.39772908563406334,0.23262158547621398,-0.0022,1.69,1.82,-0.5]),t=0.01)
servoj(get_inverse_kin(p[-0.3974728231463851,0.23267797049917602,-0.0022,1.69,1.82,-0.5]),t=0.01)
servoj(get_inverse_kin(p[-0.397216560658707,0.2327209859803045,-0.0022,1.69,1.82,-0.5]),t=0.01)
servoj(get_inverse_kin(p[-0.3969763532468208,0.2327628388084679,-0.0022,1.69,1.82,-0.5]),t=0.01)
servoj(get_inverse_kin(p[-0.39673614583493466,0.23280585414078633,-0.0022,1.69,1.82,-0.5]),t=0.01)
servoj(get_inverse_kin(p[-0.3964959382649686,0.23286223931255842,-0.0022,1.69,1.82,-0.5]),t=0.01)
servoj(get_inverse_kin(p[-0.39627116831043946,0.232919205587598,-0.0022,1.69,1.82,-0.5]),t=0.01)
servoj(get_inverse_kin(p[-0.39606121835291225,0.23296047716368384,-0.0022,1.69,1.82,-0.5]),t=0.01)
servoj(get_inverse_kin(p[-0.39585065093502997,0.23301686218664588,-0.0022,1.69,1.82,-0.5]),t=0.01)
servoj(get_inverse_kin(p[-0.3956549035141496,0.23306045891985191,-0.0022,1.69,1.82,-0.5]),t=0.01)
servoj(get_inverse_kin(p[-0.3954449535566224,0.23310173049593774,-0.0022,1.69,1.82,-0.5]),t=0.01)
servoj(get_inverse_kin(p[-0.39523438613874007,0.2331586967709773,-0.0022,1.69,1.82,-0.5]),t=0.01)
servoj(get_inverse_kin(p[-0.3950398736385699,0.23321508179393935,-0.0022,1.69,1.82,-0.5]),t=0.01)
servoj(get_inverse_kin(p[-0.3948299236810427,0.23325809727506785,-0.0022,1.69,1.82,-0.5]),t=0.01)
servoj(get_inverse_kin(p[-0.3946335586417273,0.2333144822980299,-0.0022,1.69,1.82,-0.5]),t=0.01)
servoj(get_inverse_kin(p[-0.39442360868420007,0.23335633512619328,-0.0022,1.69,1.82,-0.5]),t=0.01)
servoj(get_inverse_kin(p[-0.39421304126631773,0.23341272014915532,-0.0022,1.69,1.82,-0.5]),t=0.01)
servoj(get_inverse_kin(p[-0.3939888887721438,0.23346968657300493,-0.0022,1.69,1.82,-0.5]),t=0.01)
servoj(get_inverse_kin(p[-0.3937770864335513,0.23352607159596697,-0.0022,1.69,1.82,-0.5]),t=0.01)
servoj(get_inverse_kin(p[-0.39355231647902217,0.233582456618929,-0.0022,1.69,1.82,-0.5]),t=0.01)
servoj(get_inverse_kin(p[-0.3933263114457029,0.2336539552375773,-0.0022,1.69,1.82,-0.5]),t=0.01)
servoj(get_inverse_kin(p[-0.39310215895152884,0.23372370995118294,-0.0022,1.69,1.82,-0.5]),t=0.01)
servoj(get_inverse_kin(p[-0.3928761540762896,0.23376730668438894,-0.0022,1.69,1.82,-0.5]),t=0.01)
servoj(get_inverse_kin(p[-0.3926513841217604,0.233823691707351,-0.0022,1.69,1.82,-0.5]),t=0.01)
servoj(get_inverse_kin(p[-0.39242537908844116,0.23386554453551436,-0.0022,1.69,1.82,-0.5]),t=0.01)
servoj(get_inverse_kin(p[-0.392200609133912,0.23390856001664287,-0.0022,1.69,1.82,-0.5]),t=0.01)
servoj(get_inverse_kin(p[-0.3919906591763848,0.23393704315416267,-0.0022,1.69,1.82,-0.5]),t=0.01)
servoj(get_inverse_kin(p[-0.3917800917585026,0.2339649450396049,-0.0022,1.69,1.82,-0.5]),t=0.01)
servoj(get_inverse_kin(p[-0.39158434433762224,0.23397831473024852,-0.0022,1.69,1.82,-0.5]),t=0.01)
servoj(get_inverse_kin(p[-0.391389831837452,0.2339934281771247,-0.0022,1.69,1.82,-0.5]),t=0.01)
servoj(get_inverse_kin(p[-0.3911940844165716,0.2339934281771247,-0.0022,1.69,1.82,-0.5]),t=0.01)
servoj(get_inverse_kin(p[-0.39102921191040524,0.2340067978677683,-0.0022,1.69,1.82,-0.5]),t=0.01)
servoj(get_inverse_kin(p[-0.39068341198036044,0.2340067978677683,-0.0022,1.69,1.82,-0.5]),t=0.01)
servoj(get_inverse_kin(p[-0.39053335947119605,0.23402133006256695,-0.0022,1.69,1.82,-0.5]),t=0.01)
servoj(get_inverse_kin(p[-0.3903826895016765,0.23402133006256695,-0.0022,1.69,1.82,-0.5]),t=0.01)
servoj(get_inverse_kin(p[-0.39023263715059203,0.2340352810052881,-0.0022,1.69,1.82,-0.5]),t=0.01)
servoj(get_inverse_kin(p[-0.39009678717807444,0.2340352810052881,-0.0022,1.69,1.82,-0.5]),t=0.01)
servoj(get_inverse_kin(p[-0.38997637466291385,0.23404981320008672,-0.0022,1.69,1.82,-0.5]),t=0.01)
servoj(get_inverse_kin(p[-0.3898423772295415,0.23404981320008672,-0.0022,1.69,1.82,-0.5]),t=0.01)
servoj(get_inverse_kin(p[-0.3897361672510277,0.2340352810052881,-0.0022,1.69,1.82,-0.5]),t=0.01)
servoj(get_inverse_kin(p[-0.38963180965357924,0.23402133006256695,-0.0022,1.69,1.82,-0.5]),t=0.01)
servoj(get_inverse_kin(p[-0.3895262172935005,0.23402133006256695,-0.0022,1.69,1.82,-0.5]),t=0.01)
servoj(get_inverse_kin(p[-0.38942185969605203,0.2340067978677683,-0.0022,1.69,1.82,-0.5]),t=0.01)
servoj(get_inverse_kin(p[-0.38933170479333035,0.2339934281771247,-0.0022,1.69,1.82,-0.5]),t=0.01)
servoj(get_inverse_kin(p[-0.38924154973252867,0.23397831473024852,-0.0022,1.69,1.82,-0.5]),t=0.01)
servoj(get_inverse_kin(p[-0.3887611349087564,0.23397831473024852,-0.0022,1.69,1.82,-0.5]),t=0.01)
servoj(get_inverse_kin(p[-0.38867097984795473,0.2339934281771247,-0.0022,1.69,1.82,-0.5]),t=0.01)
servoj(get_inverse_kin(p[-0.38858082494523305,0.2339934281771247,-0.0022,1.69,1.82,-0.5]),t=0.01)
servoj(get_inverse_kin(p[-0.38849066988443137,0.2340067978677683,-0.0022,1.69,1.82,-0.5]),t=0.01)
servoj(get_inverse_kin(p[-0.38832456245755487,0.2340067978677683,-0.0022,1.69,1.82,-0.5]),t=0.01)
servoj(get_inverse_kin(p[-0.3882504624725453,0.23402133006256695,-0.0022,1.69,1.82,-0.5]),t=0.01)
servoj(get_inverse_kin(p[-0.38811461250002766,0.23402133006256695,-0.0022,1.69,1.82,-0.5]),t=0.01)
servoj(get_inverse_kin(p[-0.38805471505166483,0.2340352810052881,-0.0022,1.69,1.82,-0.5]),t=0.01)
servoj(get_inverse_kin(p[-0.38799419998486706,0.23404981320008672,-0.0022,1.69,1.82,-0.5]),t=0.01)
servoj(get_inverse_kin(p[-0.3876496351336124,0.23404981320008672,-0.0022,1.69,1.82,-0.5]),t=0.01)
servoj(get_inverse_kin(p[-0.38763419767625545,0.2340352810052881,-0.0022,1.69,1.82,-0.5]),t=0.01)
servoj(get_inverse_kin(p[-0.3875298400788069,0.2340352810052881,-0.0022,1.69,1.82,-0.5]),t=0.01)
servoj(get_inverse_kin(p[-0.3875137851610948,0.23402133006256695,-0.0022,1.69,1.82,-0.5]),t=0.01)
servoj(get_inverse_kin(p[-0.3874835277067359,0.23402133006256695,-0.0022,1.69,1.82,-0.5]),t=0.01)
servoj(get_inverse_kin(p[-0.38745388771273204,0.2340067978677683,-0.0022,1.69,1.82,-0.5]),t=0.01)
servoj(get_inverse_kin(p[-0.38743968517608524,0.2340067978677683,-0.0022,1.69,1.82,-0.5]),t=0.01)
servoj(get_inverse_kin(p[-0.38740942772172626,0.2339934281771247,-0.0022,1.69,1.82,-0.5]),t=0.01)
servoj(get_inverse_kin(p[-0.38737917010928735,0.2339934281771247,-0.0022,1.69,1.82,-0.5]),t=0.01)
servoj(get_inverse_kin(p[-0.38736373265193036,0.23397831473024852,-0.0022,1.69,1.82,-0.5]),t=0.01)
servoj(get_inverse_kin(p[-0.3873334751975715,0.23397831473024852,-0.0022,1.69,1.82,-0.5]),t=0.01)
servoj(get_inverse_kin(p[-0.3873038352035676,0.2339649450396049,-0.0022,1.69,1.82,-0.5]),t=0.01)
servoj(get_inverse_kin(p[-0.3872735777492087,0.2339649450396049,-0.0022,1.69,1.82,-0.5]),t=0.01)
servoj(get_inverse_kin(p[-0.38724332013676976,0.23395041284480628,-0.0022,1.69,1.82,-0.5]),t=0.01)
servoj(get_inverse_kin(p[-0.38721368014276597,0.23393704315416267,-0.0022,1.69,1.82,-0.5]),t=0.01)
servoj(get_inverse_kin(p[-0.38718342268840705,0.23392192955847643,-0.0022,1.69,1.82,-0.5]),t=0.01)
servoj(get_inverse_kin(p[-0.3871531652340481,0.23392192955847643,-0.0022,1.69,1.82,-0.5]),t=0.01)
servoj(get_inverse_kin(p[-0.38710932270339743,0.23390856001664287,-0.0022,1.69,1.82,-0.5]),t=0.01)
servoj(get_inverse_kin(p[-0.38707906524903846,0.2338934464209566,-0.0022,1.69,1.82,-0.5]),t=0.01)
servoj(get_inverse_kin(p[-0.3868987552855151,0.2338934464209566,-0.0022,1.69,1.82,-0.5]),t=0.01)
servoj(get_inverse_kin(p[-0.3868530602157192,0.23390856001664287,-0.0022,1.69,1.82,-0.5]),t=0.01)
servoj(get_inverse_kin(p[-0.3868086002247135,0.23390856001664287,-0.0022,1.69,1.82,-0.5]),t=0.01)
servoj(get_inverse_kin(p[-0.3867487027763507,0.23392192955847643,-0.0022,1.69,1.82,-0.5]),t=0.01)
servoj(get_inverse_kin(p[-0.3866888053279879,0.23393704315416267,-0.0022,1.69,1.82,-0.5]),t=0.01)
servoj(get_inverse_kin(p[-0.3866282902611901,0.23393704315416267,-0.0022,1.69,1.82,-0.5]),t=0.01)
servoj(get_inverse_kin(p[-0.38656839281282734,0.2339649450396049,-0.0022,1.69,1.82,-0.5]),t=0.01)
servoj(get_inverse_kin(p[-0.3865084953644646,0.2339649450396049,-0.0022,1.69,1.82,-0.5]),t=0.01)
servoj(get_inverse_kin(p[-0.3864485979161018,0.23397831473024852,-0.0022,1.69,1.82,-0.5]),t=0.01)
servoj(get_inverse_kin(p[-0.386372645391947,0.2340067978677683,-0.0022,1.69,1.82,-0.5]),t=0.01)
servoj(get_inverse_kin(p[-0.38631213032514916,0.23402133006256695,-0.0022,1.69,1.82,-0.5]),t=0.01)
servoj(get_inverse_kin(p[-0.38623679541942935,0.23404981320008672,-0.0022,1.69,1.82,-0.5]),t=0.01)
servoj(get_inverse_kin(p[-0.3861762803526315,0.23407829648641656,-0.0022,1.69,1.82,-0.5]),t=0.01)
servoj(get_inverse_kin(p[-0.38610218036762195,0.23410619837185884,-0.0022,1.69,1.82,-0.5]),t=0.01)
servoj(get_inverse_kin(p[-0.3860262280015471,0.23413468150937863,-0.0022,1.69,1.82,-0.5]),t=0.01)
servoj(get_inverse_kin(p[-0.3859521280165375,0.23417653433754199,-0.0022,1.69,1.82,-0.5]),t=0.01)
servoj(get_inverse_kin(p[-0.3858761754923826,0.23421954966986044,-0.0022,1.69,1.82,-0.5]),t=0.01)
servoj(get_inverse_kin(p[-0.3858162780440199,0.23423291936050405,-0.0022,1.69,1.82,-0.5]),t=0.01)
servoj(get_inverse_kin(p[-0.3857415604405752,0.23426140249802382,-0.0022,1.69,1.82,-0.5]),t=0.01)
servoj(get_inverse_kin(p[-0.38566560807450034,0.23428930438346607,-0.0022,1.69,1.82,-0.5]),t=0.01)
servoj(get_inverse_kin(p[-0.3855915080894907,0.2343177876697959,-0.0022,1.69,1.82,-0.5]),t=0.01)
servoj(get_inverse_kin(p[-0.38551555556533595,0.2343462708073157,-0.0022,1.69,1.82,-0.5]),t=0.01)
servoj(get_inverse_kin(p[-0.38545565811697313,0.23437417269275795,-0.0022,1.69,1.82,-0.5]),t=0.01)
servoj(get_inverse_kin(p[-0.3853815581319635,0.23440265583027772,-0.0022,1.69,1.82,-0.5]),t=0.01)
servoj(get_inverse_kin(p[-0.38530560560780874,0.23443055771571997,-0.0022,1.69,1.82,-0.5]),t=0.01)
servoj(get_inverse_kin(p[-0.385230888162444,0.23447415444892603,-0.0022,1.69,1.82,-0.5]),t=0.01)
servoj(get_inverse_kin(p[-0.38517099055600124,0.23450205633436827,-0.0022,1.69,1.82,-0.5]),t=0.01)
servoj(get_inverse_kin(p[-0.3850950381899264,0.23453053947188807,-0.0022,1.69,1.82,-0.5]),t=0.01)
servoj(get_inverse_kin(p[-0.38503514058348365,0.23455902260940784,-0.0022,1.69,1.82,-0.5]),t=0.01)
servoj(get_inverse_kin(p[-0.38497524313512094,0.23460203809053634,-0.0022,1.69,1.82,-0.5]),t=0.01)
servoj(get_inverse_kin(p[-0.3849147282264031,0.23464389091869972,-0.0022,1.69,1.82,-0.5]),t=0.01)
servoj(get_inverse_kin(p[-0.38487088569575234,0.23467179280414197,-0.0022,1.69,1.82,-0.5]),t=0.01)
servoj(get_inverse_kin(p[-0.38481037062895457,0.23470027594166173,-0.0022,1.69,1.82,-0.5]),t=0.01)
servoj(get_inverse_kin(p[-0.3847646757172386,0.23474329142279027,-0.0022,1.69,1.82,-0.5]),t=0.01)
servoj(get_inverse_kin(p[-0.3847202157262329,0.2347566609646238,-0.0022,1.69,1.82,-0.5]),t=0.01)
servoj(get_inverse_kin(p[-0.38469057573222903,0.23479967644575228,-0.0022,1.69,1.82,-0.5]),t=0.01)
servoj(get_inverse_kin(p[-0.38464488066243313,0.2348415292739157,-0.0022,1.69,1.82,-0.5]),t=0.01)
servoj(get_inverse_kin(p[-0.38460042067142736,0.23487001241143546,-0.0022,1.69,1.82,-0.5]),t=0.01)
servoj(get_inverse_kin(p[-0.38457016321706844,0.23491302789256394,-0.0022,1.69,1.82,-0.5]),t=0.01)
servoj(get_inverse_kin(p[-0.3845405232230646,0.23495488072072732,-0.0022,1.69,1.82,-0.5]),t=0.01)
servoj(get_inverse_kin(p[-0.3845102657687057,0.23499789605304577,-0.0022,1.69,1.82,-0.5]),t=0.01)
servoj(get_inverse_kin(p[-0.3844942106929136,0.23503974888120915,-0.0022,1.69,1.82,-0.5]),t=0.01)
servoj(get_inverse_kin(p[-0.3844800083143467,0.2350961339041712,-0.0022,1.69,1.82,-0.5]),t=0.01)
servoj(get_inverse_kin(p[-0.38446457069890977,0.2351391493852997,-0.0022,1.69,1.82,-0.5]),t=0.01)
servoj(get_inverse_kin(p[-0.3844503683203429,0.23518100221346308,-0.0022,1.69,1.82,-0.5]),t=0.01)
servoj(get_inverse_kin(p[-0.3844503683203429,0.2352240175457815,-0.0022,1.69,1.82,-0.5]),t=0.01)
servoj(get_inverse_kin(p[-0.3844343132445508,0.2352658703739449,-0.0022,1.69,1.82,-0.5]),t=0.01)
servoj(get_inverse_kin(p[-0.384420110707904,0.2353088858550734,-0.0022,1.69,1.82,-0.5]),t=0.01)
servoj(get_inverse_kin(p[-0.384420110707904,0.23542165590099745,-0.0022,1.69,1.82,-0.5]),t=0.01)
servoj(get_inverse_kin(p[-0.38440405579019193,0.2354501391873273,-0.0022,1.69,1.82,-0.5]),t=0.01)
servoj(get_inverse_kin(p[-0.38440405579019193,0.2354919920154907,-0.0022,1.69,1.82,-0.5]),t=0.01)
servoj(get_inverse_kin(p[-0.384420110707904,0.23553500734780913,-0.0022,1.69,1.82,-0.5]),t=0.01)
servoj(get_inverse_kin(p[-0.384420110707904,0.23561987565710102,-0.0022,1.69,1.82,-0.5]),t=0.01)
servoj(get_inverse_kin(p[-0.3844343132445508,0.23564835879462082,-0.0022,1.69,1.82,-0.5]),t=0.01)
servoj(get_inverse_kin(p[-0.3844343132445508,0.23568963037070662,-0.0022,1.69,1.82,-0.5]),t=0.01)
servoj(get_inverse_kin(p[-0.3844503683203429,0.23573264570302507,-0.0022,1.69,1.82,-0.5]),t=0.01)
servoj(get_inverse_kin(p[-0.38446457069890977,0.23577449853118848,-0.0022,1.69,1.82,-0.5]),t=0.01)
servoj(get_inverse_kin(p[-0.38446457069890977,0.23581751401231696,-0.0022,1.69,1.82,-0.5]),t=0.01)
servoj(get_inverse_kin(p[-0.3844942106929136,0.23585936684048034,-0.0022,1.69,1.82,-0.5]),t=0.01)
servoj(get_inverse_kin(p[-0.3845102657687057,0.23590238217279877,-0.0022,1.69,1.82,-0.5]),t=0.01)
servoj(get_inverse_kin(p[-0.3845244683053525,0.23594423500096215,-0.0022,1.69,1.82,-0.5]),t=0.01)
servoj(get_inverse_kin(p[-0.38455472575971145,0.23598725048209065,-0.0022,1.69,1.82,-0.5]),t=0.01)
servoj(get_inverse_kin(p[-0.38458436575371524,0.23602910331025403,-0.0022,1.69,1.82,-0.5]),t=0.01)
servoj(get_inverse_kin(p[-0.38460042067142736,0.2360721186425725,-0.0022,1.69,1.82,-0.5]),t=0.01)
servoj(get_inverse_kin(p[-0.3846745206564369,0.23614187335617812,-0.0022,1.69,1.82,-0.5]),t=0.01)
servoj(get_inverse_kin(p[-0.3847047782688759,0.23618547008938415,-0.0022,1.69,1.82,-0.5]),t=0.01)
servoj(get_inverse_kin(p[-0.38473503572323475,0.2362133719748264,-0.0022,1.69,1.82,-0.5]),t=0.01)
servoj(get_inverse_kin(p[-0.3847807306349507,0.23625522480298977,-0.0022,1.69,1.82,-0.5]),t=0.01)
servoj(get_inverse_kin(p[-0.3848245731656014,0.23628370794050957,-0.0022,1.69,1.82,-0.5]),t=0.01)
servoj(get_inverse_kin(p[-0.38487088569575234,0.23632672342163807,-0.0022,1.69,1.82,-0.5]),t=0.01)
servoj(get_inverse_kin(p[-0.3849147282264031,0.23636857624980143,-0.0022,1.69,1.82,-0.5]),t=0.01)
servoj(get_inverse_kin(p[-0.3849610405984741,0.23641159158211988,-0.0022,1.69,1.82,-0.5]),t=0.01)
servoj(get_inverse_kin(p[-0.38502093820491684,0.23645344441028326,-0.0022,1.69,1.82,-0.5]),t=0.01)
servoj(get_inverse_kin(p[-0.38506539819592256,0.2365098294332453,-0.0022,1.69,1.82,-0.5]),t=0.01)
servoj(get_inverse_kin(p[-0.3851252956442854,0.23655284491437378,-0.0022,1.69,1.82,-0.5]),t=0.01)
servoj(get_inverse_kin(p[-0.3851851930926481,0.23659469774253716,-0.0022,1.69,1.82,-0.5]),t=0.01)
servoj(get_inverse_kin(p[-0.385230888162444,0.2366510827654992,-0.0022,1.69,1.82,-0.5]),t=0.01)
servoj(get_inverse_kin(p[-0.3852914030711619,0.2366940982466277,-0.0022,1.69,1.82,-0.5]),t=0.01)
servoj(get_inverse_kin(p[-0.38533524560181254,0.23673595107479106,-0.0022,1.69,1.82,-0.5]),t=0.01)
servoj(get_inverse_kin(p[-0.3853957605105304,0.23677896640710952,-0.0022,1.69,1.82,-0.5]),t=0.01)
servoj(get_inverse_kin(p[-0.38544145558032633,0.23680744954462932,-0.0022,1.69,1.82,-0.5]),t=0.01)
servoj(get_inverse_kin(p[-0.3855013530286891,0.23684872112071517,-0.0022,1.69,1.82,-0.5]),t=0.01)
servoj(get_inverse_kin(p[-0.38556125047705186,0.23690568754456479,-0.0022,1.69,1.82,-0.5]),t=0.01)
servoj(get_inverse_kin(p[-0.3856217655438497,0.23693358943000703,-0.0022,1.69,1.82,-0.5]),t=0.01)
servoj(get_inverse_kin(p[-0.3856816629922124,0.236977186014403,-0.0022,1.69,1.82,-0.5]),t=0.01)
servoj(get_inverse_kin(p[-0.3857261229832182,0.23700508789984528,-0.0022,1.69,1.82,-0.5]),t=0.01)
servoj(get_inverse_kin(p[-0.38578602043158094,0.23704694072800864,-0.0022,1.69,1.82,-0.5]),t=0.01)
servoj(get_inverse_kin(p[-0.3858459180380237,0.23707542401433848,-0.0022,1.69,1.82,-0.5]),t=0.01)
servoj(get_inverse_kin(p[-0.38590581548638647,0.23711843934665694,-0.0022,1.69,1.82,-0.5]),t=0.01)
servoj(get_inverse_kin(p[-0.38596633039510436,0.23716029217482032,-0.0022,1.69,1.82,-0.5]),t=0.01)
servoj(get_inverse_kin(p[-0.3860262280015471,0.23718819406026256,-0.0022,1.69,1.82,-0.5]),t=0.01)
servoj(get_inverse_kin(p[-0.38610218036762195,0.23721667719778233,-0.0022,1.69,1.82,-0.5]),t=0.01)
servoj(get_inverse_kin(p[-0.3861762803526315,0.23727306236955445,-0.0022,1.69,1.82,-0.5]),t=0.01)
servoj(get_inverse_kin(p[-0.38625223287678634,0.2373160777018729,-0.0022,1.69,1.82,-0.5]),t=0.01)
servoj(get_inverse_kin(p[-0.386326332861796,0.23735793053003626,-0.0022,1.69,1.82,-0.5]),t=0.01)
servoj(get_inverse_kin(p[-0.3864022853859508,0.2374143155529983,-0.0022,1.69,1.82,-0.5]),t=0.01)
servoj(get_inverse_kin(p[-0.38649244028867247,0.23747128197684794,-0.0022,1.69,1.82,-0.5]),t=0.01)
servoj(get_inverse_kin(p[-0.38658259534947415,0.23751429730916637,-0.0022,1.69,1.82,-0.5]),t=0.01)
servoj(get_inverse_kin(p[-0.386658547873629,0.23757068248093846,-0.0022,1.69,1.82,-0.5]),t=0.01)
servoj(get_inverse_kin(p[-0.3867487027763507,0.23764043719454409,-0.0022,1.69,1.82,-0.5]),t=0.01)
servoj(get_inverse_kin(p[-0.3868530602157192,0.23769856612254878,-0.0022,1.69,1.82,-0.5]),t=0.01)
servoj(get_inverse_kin(p[-0.3869432152765209,0.23775553239758834,-0.0022,1.69,1.82,-0.5]),t=0.01)
servoj(get_inverse_kin(p[-0.38704880779467954,0.2378119174205504,-0.0022,1.69,1.82,-0.5]),t=0.01)
servoj(get_inverse_kin(p[-0.3871531652340481,0.2378683025923225,-0.0022,1.69,1.82,-0.5]),t=0.01)
servoj(get_inverse_kin(p[-0.3872735777492087,0.23792468761528454,-0.0022,1.69,1.82,-0.5]),t=0.01)
servoj(get_inverse_kin(p[-0.38737917010928735,0.23798165389032408,-0.0022,1.69,1.82,-0.5]),t=0.01)
servoj(get_inverse_kin(p[-0.3875137851610948,0.23803803906209617,-0.0022,1.69,1.82,-0.5]),t=0.01)
servoj(get_inverse_kin(p[-0.38763419767625545,0.23807989189025958,-0.0022,1.69,1.82,-0.5]),t=0.01)
servoj(get_inverse_kin(p[-0.387753992572981,0.23812290722257803,-0.0022,1.69,1.82,-0.5]),t=0.01)
servoj(get_inverse_kin(p[-0.3878898425454985,0.23817929224554005,-0.0022,1.69,1.82,-0.5]),t=0.01)
servoj(get_inverse_kin(p[-0.38802445759730597,0.2382211450737034,-0.0022,1.69,1.82,-0.5]),t=0.01)
servoj(get_inverse_kin(p[-0.38814425249403156,0.23826416055483193,-0.0022,1.69,1.82,-0.5]),t=0.01)
servoj(get_inverse_kin(p[-0.3882949224635511,0.2383060133829953,-0.0022,1.69,1.82,-0.5]),t=0.01)
servoj(get_inverse_kin(p[-0.3884307724360686,0.23834902871531374,-0.0022,1.69,1.82,-0.5]),t=0.01)
servoj(get_inverse_kin(p[-0.38856476986944094,0.23839088154347712,-0.0022,1.69,1.82,-0.5]),t=0.01)
servoj(get_inverse_kin(p[-0.3887308774543975,0.23843389702460563,-0.0022,1.69,1.82,-0.5]),t=0.01)
servoj(get_inverse_kin(p[-0.3888809298054819,0.23846238016212543,-0.0022,1.69,1.82,-0.5]),t=0.01)
servoj(get_inverse_kin(p[-0.3890458023116483,0.23850365173821125,-0.0022,1.69,1.82,-0.5]),t=0.01)
servoj(get_inverse_kin(p[-0.3891958548208127,0.23853213487573102,-0.0022,1.69,1.82,-0.5]),t=0.01)
servoj(get_inverse_kin(p[-0.38937616478433607,0.23856003676117327,-0.0022,1.69,1.82,-0.5]),t=0.01)
servoj(get_inverse_kin(p[-0.38954165475085756,0.23860363349437932,-0.0022,1.69,1.82,-0.5]),t=0.01)
servoj(get_inverse_kin(p[-0.3897361672510277,0.23863153537982157,-0.0022,1.69,1.82,-0.5]),t=0.01)
servoj(get_inverse_kin(p[-0.3899164772145511,0.23867338820798498,-0.0022,1.69,1.82,-0.5]),t=0.01)
servoj(get_inverse_kin(p[-0.39011284209578656,0.23870187134550475,-0.0022,1.69,1.82,-0.5]),t=0.01)
servoj(get_inverse_kin(p[-0.39032279205331377,0.238729773230947,-0.0022,1.69,1.82,-0.5]),t=0.01)
servoj(get_inverse_kin(p[-0.39053335947119605,0.23875825636846676,-0.0022,1.69,1.82,-0.5]),t=0.01)
servoj(get_inverse_kin(p[-0.39074330942872326,0.2387867396547966,-0.0022,1.69,1.82,-0.5]),t=0.01)
servoj(get_inverse_kin(p[-0.3909693144620425,0.23881464154023888,-0.0022,1.69,1.82,-0.5]),t=0.01)
servoj(get_inverse_kin(p[-0.3911940844165716,0.23884312467775864,-0.0022,1.69,1.82,-0.5]),t=0.01)
servoj(get_inverse_kin(p[-0.39142008929181094,0.23887160781527844,-0.0022,1.69,1.82,-0.5]),t=0.01)
servoj(get_inverse_kin(p[-0.39164424178598495,0.2388861400100771,-0.0022,1.69,1.82,-0.5]),t=0.01)
servoj(get_inverse_kin(p[-0.39188444919787113,0.23891462329640695,-0.0022,1.69,1.82,-0.5]),t=0.01)
servoj(get_inverse_kin(p[-0.39212527422819227,0.2389425251818492,-0.0022,1.69,1.82,-0.5]),t=0.01)
servoj(get_inverse_kin(p[-0.39236548164007845,0.238971008319369,-0.0022,1.69,1.82,-0.5]),t=0.01)
servoj(get_inverse_kin(p[-0.39262112666740157,0.23899949145688876,-0.0022,1.69,1.82,-0.5]),t=0.01)
servoj(get_inverse_kin(p[-0.3928761540762896,0.239027393342331,-0.0022,1.69,1.82,-0.5]),t=0.01)
servoj(get_inverse_kin(p[-0.3931317989455327,0.2390407630329746,-0.0022,1.69,1.82,-0.5]),t=0.01)
servoj(get_inverse_kin(p[-0.39338620889406567,0.23905587647985077,-0.0022,1.69,1.82,-0.5]),t=0.01)
servoj(get_inverse_kin(p[-0.3936566739183907,0.23908435976618062,-0.0022,1.69,1.82,-0.5]),t=0.01)
servoj(get_inverse_kin(p[-0.3939431938604278,0.23909772930801418,-0.0022,1.69,1.82,-0.5]),t=0.01)
servoj(get_inverse_kin(p[-0.3942290963421099,0.23911226165162291,-0.0022,1.69,1.82,-0.5]),t=0.01)
servoj(get_inverse_kin(p[-0.3945137637450017,0.23912563119345642,-0.0022,1.69,1.82,-0.5]),t=0.01)
servoj(get_inverse_kin(p[-0.3947996662266838,0.23914074478914268,-0.0022,1.69,1.82,-0.5]),t=0.01)
servoj(get_inverse_kin(p[-0.3950843336295757,0.23914074478914268,-0.0022,1.69,1.82,-0.5]),t=0.01)
servoj(get_inverse_kin(p[-0.39537023611125766,0.23915411447978627,-0.0022,1.69,1.82,-0.5]),t=0.01)
servoj(get_inverse_kin(p[-0.3964959382649686,0.23915411447978627,-0.0022,1.69,1.82,-0.5]),t=0.01)
servoj(get_inverse_kin(p[-0.3967818407466506,0.23916922792666248,-0.0022,1.69,1.82,-0.5]),t=0.01)
servoj(get_inverse_kin(p[-0.39879427287905633,0.23916922792666248,-0.0022,1.69,1.82,-0.5]),t=0.01)
servoj(get_inverse_kin(p[-0.3990949953577403,0.23915411447978627,-0.0022,1.69,1.82,-0.5]),t=0.01)
servoj(get_inverse_kin(p[-0.3996810026996712,0.23915411447978627,-0.0022,1.69,1.82,-0.5]),t=0.01)
servoj(get_inverse_kin(p[-0.3999817251783552,0.23914074478914268,-0.0022,1.69,1.82,-0.5]),t=0.01)
servoj(get_inverse_kin(p[-0.4005664974414959,0.23914074478914268,-0.0022,1.69,1.82,-0.5]),t=0.01)
servoj(get_inverse_kin(p[-0.40085239992317806,0.23912563119345642,-0.0022,1.69,1.82,-0.5]),t=0.01)
servoj(get_inverse_kin(p[-0.4011370673260699,0.23912563119345642,-0.0022,1.69,1.82,-0.5]),t=0.01)
servoj(get_inverse_kin(p[-0.40142296980775194,0.23911226165162291,-0.0022,1.69,1.82,-0.5]),t=0.01)
servoj(get_inverse_kin(p[-0.4016934348320769,0.23911226165162291,-0.0022,1.69,1.82,-0.5]),t=0.01)
servoj(get_inverse_kin(p[-0.401963899698322,0.23909772930801418,-0.0022,1.69,1.82,-0.5]),t=0.01)
servoj(get_inverse_kin(p[-0.4022201621860002,0.23909772930801418,-0.0022,1.69,1.82,-0.5]),t=0.01)
servoj(get_inverse_kin(p[-0.4024603695978864,0.23906924617049438,-0.0022,1.69,1.82,-0.5]),t=0.01)
servoj(get_inverse_kin(p[-0.4027147795464193,0.23906924617049438,-0.0022,1.69,1.82,-0.5]),t=0.01)
servoj(get_inverse_kin(p[-0.40294078457973853,0.23905587647985077,-0.0022,1.69,1.82,-0.5]),t=0.01)
servoj(get_inverse_kin(p[-0.4031809919916247,0.2390407630329746,-0.0022,1.69,1.82,-0.5]),t=0.01)
servoj(get_inverse_kin(p[-0.4034057619461538,0.2390407630329746,-0.0022,1.69,1.82,-0.5]),t=0.01)
servoj(get_inverse_kin(p[-0.40364596935804,0.239027393342331,-0.0022,1.69,1.82,-0.5]),t=0.01)
servoj(get_inverse_kin(p[-0.40408192434888646,0.239027393342331,-0.0022,1.69,1.82,-0.5]),t=0.01)
servoj(get_inverse_kin(p[-0.4042924917667687,0.23901286114753237,-0.0022,1.69,1.82,-0.5]),t=0.01)
servoj(get_inverse_kin(p[-0.40450244172429595,0.23899949145688876,-0.0022,1.69,1.82,-0.5]),t=0.01)
servoj(get_inverse_kin(p[-0.4046969542244661,0.23898437801001257,-0.0022,1.69,1.82,-0.5]),t=0.01)
servoj(get_inverse_kin(p[-0.40487726418798947,0.238971008319369,-0.0022,1.69,1.82,-0.5]),t=0.01)
servoj(get_inverse_kin(p[-0.40555404405107714,0.238971008319369,-0.0022,1.69,1.82,-0.5]),t=0.01)
servoj(get_inverse_kin(p[-0.4056441989537989,0.23898437801001257,-0.0022,1.69,1.82,-0.5]),t=0.01)
servoj(get_inverse_kin(p[-0.4057343540146005,0.23899949145688876,-0.0022,1.69,1.82,-0.5]),t=0.01)
servoj(get_inverse_kin(p[-0.4058096889203203,0.239027393342331,-0.0022,1.69,1.82,-0.5]),t=0.01)
servoj(get_inverse_kin(p[-0.4058702039871181,0.239027393342331,-0.0022,1.69,1.82,-0.5]),t=0.01)
servoj(get_inverse_kin(p[-0.4059140463596888,0.23905587647985077,-0.0022,1.69,1.82,-0.5]),t=0.01)
servoj(get_inverse_kin(p[-0.40596035888983983,0.23906924617049438,-0.0022,1.69,1.82,-0.5]),t=0.01)
servoj(get_inverse_kin(p[-0.4059899988838437,0.23909772930801418,-0.0022,1.69,1.82,-0.5]),t=0.01)
servoj(get_inverse_kin(p[-0.40602025633820255,0.23912563119345642,-0.0022,1.69,1.82,-0.5]),t=0.01)
servoj(get_inverse_kin(p[-0.4060344588748494,0.23915411447978627,-0.0022,1.69,1.82,-0.5]),t=0.01)
servoj(get_inverse_kin(p[-0.40605051395064146,0.23918259761730606,-0.0022,1.69,1.82,-0.5]),t=0.01)
servoj(get_inverse_kin(p[-0.4060647163292083,0.2392256129496245,-0.0022,1.69,1.82,-0.5]),t=0.01)
servoj(get_inverse_kin(p[-0.4060647163292083,0.2393953494193982,-0.0022,1.69,1.82,-0.5]),t=0.01)
servoj(get_inverse_kin(p[-0.40605051395064146,0.23946510413300381,-0.0022,1.69,1.82,-0.5]),t=0.01)
servoj(get_inverse_kin(p[-0.4060344588748494,0.2395214893047759,-0.0022,1.69,1.82,-0.5]),t=0.01)
servoj(get_inverse_kin(p[-0.40602025633820255,0.23957845557981547,-0.0022,1.69,1.82,-0.5]),t=0.01)
servoj(get_inverse_kin(p[-0.4059899988838437,0.23964937294638625,-0.0022,1.69,1.82,-0.5]),t=0.01)
servoj(get_inverse_kin(p[-0.40597456142648664,0.2397063392214258,-0.0022,1.69,1.82,-0.5]),t=0.01)
servoj(get_inverse_kin(p[-0.4059443039721277,0.23976272424438785,-0.0022,1.69,1.82,-0.5]),t=0.01)
servoj(get_inverse_kin(p[-0.40593010143548086,0.23981910941615994,-0.0022,1.69,1.82,-0.5]),t=0.01)
servoj(get_inverse_kin(p[-0.40589984398112194,0.2398760756911995,-0.0022,1.69,1.82,-0.5]),t=0.01)
servoj(get_inverse_kin(p[-0.40588440636568496,0.23991734726728536,-0.0022,1.69,1.82,-0.5]),t=0.01)
servoj(get_inverse_kin(p[-0.40585414891132604,0.2399603625996038,-0.0022,1.69,1.82,-0.5]),t=0.01)
servoj(get_inverse_kin(p[-0.4058399463746792,0.24000221542776717,-0.0022,1.69,1.82,-0.5]),t=0.01)
servoj(get_inverse_kin(p[-0.40582389145696707,0.24003069871409702,-0.0022,1.69,1.82,-0.5]),t=0.01)
servoj(get_inverse_kin(p[-0.40579425146296333,0.24005860059953926,-0.0022,1.69,1.82,-0.5]),t=0.01)
servoj(get_inverse_kin(p[-0.4057800489263165,0.24008708373705906,-0.0022,1.69,1.82,-0.5]),t=0.01)
servoj(get_inverse_kin(p[-0.40576399400860436,0.24011556687457883,-0.0022,1.69,1.82,-0.5]),t=0.01)
servoj(get_inverse_kin(p[-0.4057497914719575,0.24015858235570736,-0.0022,1.69,1.82,-0.5]),t=0.01)
servoj(get_inverse_kin(p[-0.40572015147795365,0.24018706549322713,-0.0022,1.69,1.82,-0.5]),t=0.01)
servoj(get_inverse_kin(p[-0.4057040964021616,0.2402149673786694,-0.0022,1.69,1.82,-0.5]),t=0.01)
servoj(get_inverse_kin(p[-0.4056898940235948,0.24024345051618917,-0.0022,1.69,1.82,-0.5]),t=0.01)
servoj(get_inverse_kin(p[-0.4056596364111558,0.24028530334435255,-0.0022,1.69,1.82,-0.5]),t=0.01)
servoj(get_inverse_kin(p[-0.4056441989537989,0.2403132052297948,-0.0022,1.69,1.82,-0.5]),t=0.01)
servoj(get_inverse_kin(p[-0.4056139414994399,0.2403562207109233,-0.0022,1.69,1.82,-0.5]),t=0.01)
servoj(get_inverse_kin(p[-0.405583684045081,0.24039807353908668,-0.0022,1.69,1.82,-0.5]),t=0.01)
servoj(get_inverse_kin(p[-0.40556948150843414,0.24042655667660645,-0.0022,1.69,1.82,-0.5]),t=0.01)
servoj(get_inverse_kin(p[-0.40553984151443034,0.2404695720089249,-0.0022,1.69,1.82,-0.5]),t=0.01)
servoj(get_inverse_kin(p[-0.40552378643863823,0.240525957180697,-0.0022,1.69,1.82,-0.5]),t=0.01)
servoj(get_inverse_kin(p[-0.40549352898427937,0.24058292345573656,-0.0022,1.69,1.82,-0.5]),t=0.01)
servoj(get_inverse_kin(p[-0.4054793264476325,0.2406393084786986,-0.0022,1.69,1.82,-0.5]),t=0.01)
servoj(get_inverse_kin(p[-0.4054638889902755,0.2407108070973469,-0.0022,1.69,1.82,-0.5]),t=0.01)
servoj(get_inverse_kin(p[-0.40544968645362867,0.24079567540663877,-0.0022,1.69,1.82,-0.5]),t=0.01)
servoj(get_inverse_kin(p[-0.40543363153591655,0.2408654301202444,-0.0022,1.69,1.82,-0.5]),t=0.01)
servoj(get_inverse_kin(p[-0.40543363153591655,0.24095029828072623,-0.0022,1.69,1.82,-0.5]),t=0.01)
servoj(get_inverse_kin(p[-0.4054194289992697,0.24104969878481677,-0.0022,1.69,1.82,-0.5]),t=0.01)
servoj(get_inverse_kin(p[-0.4054194289992697,0.24143102455252755,-0.0022,1.69,1.82,-0.5]),t=0.01)
servoj(get_inverse_kin(p[-0.4054039915419127,0.24150252317117582,-0.0022,1.69,1.82,-0.5]),t=0.01)
servoj(get_inverse_kin(p[-0.4054039915419127,0.2416152932170999,-0.0022,1.69,1.82,-0.5]),t=0.01)
servoj(get_inverse_kin(p[-0.40538917154491083,0.2417001615263918,-0.0022,1.69,1.82,-0.5]),t=0.01)
servoj(get_inverse_kin(p[-0.4053737340875538,0.2417983993775172,-0.0022,1.69,1.82,-0.5]),t=0.01)
servoj(get_inverse_kin(p[-0.4053595315509069,0.24189838113368525,-0.0022,1.69,1.82,-0.5]),t=0.01)
servoj(get_inverse_kin(p[-0.405329274096548,0.24198266804208957,-0.0022,1.69,1.82,-0.5]),t=0.01)
servoj(get_inverse_kin(p[-0.405313836481111,0.24206753635138142,-0.0022,1.69,1.82,-0.5]),t=0.01)
servoj(get_inverse_kin(p[-0.4052996341025442,0.2421378723170646,-0.0022,1.69,1.82,-0.5]),t=0.01)
servoj(get_inverse_kin(p[-0.4052693764901053,0.24220937093571288,-0.0022,1.69,1.82,-0.5]),t=0.01)
servoj(get_inverse_kin(p[-0.4052533215723932,0.2422657559586749,-0.0022,1.69,1.82,-0.5]),t=0.01)
servoj(get_inverse_kin(p[-0.40522368157838934,0.24233551067228054,-0.0022,1.69,1.82,-0.5]),t=0.01)
servoj(get_inverse_kin(p[-0.4051934241240305,0.24239189569524255,-0.0022,1.69,1.82,-0.5]),t=0.01)
servoj(get_inverse_kin(p[-0.40514896413302465,0.24244886211909222,-0.0022,1.69,1.82,-0.5]),t=0.01)
servoj(get_inverse_kin(p[-0.4051193241390208,0.24252036058893042,-0.0022,1.69,1.82,-0.5]),t=0.01)
servoj(get_inverse_kin(p[-0.4050730116088698,0.2425767457607025,-0.0022,1.69,1.82,-0.5]),t=0.01)
servoj(get_inverse_kin(p[-0.405013114160507,0.24264650047430816,-0.0022,1.69,1.82,-0.5]),t=0.01)
servoj(get_inverse_kin(p[-0.40495321655406435,0.2427179989441464,-0.0022,1.69,1.82,-0.5]),t=0.01)
servoj(get_inverse_kin(p[-0.40489331910570153,0.24278775365775201,-0.0022,1.69,1.82,-0.5]),t=0.01)
servoj(get_inverse_kin(p[-0.4048173665815467,0.24284472008160166,-0.0022,1.69,1.82,-0.5]),t=0.01)
servoj(get_inverse_kin(p[-0.404742649136182,0.2429162187002499,-0.0022,1.69,1.82,-0.5]),t=0.01)
servoj(get_inverse_kin(p[-0.40465311169381546,0.24298597341385555,-0.0022,1.69,1.82,-0.5]),t=0.01)
servoj(get_inverse_kin(p[-0.4045629566330138,0.24305747188369378,-0.0022,1.69,1.82,-0.5]),t=0.01)
servoj(get_inverse_kin(p[-0.4044567466545,0.24311385705546587,-0.0022,1.69,1.82,-0.5]),t=0.01)
servoj(get_inverse_kin(p[-0.4043523892151315,0.24318361176907152,-0.0022,1.69,1.82,-0.5]),t=0.01)
servoj(get_inverse_kin(p[-0.40424679669697283,0.24325511023890975,-0.0022,1.69,1.82,-0.5]),t=0.01)
servoj(get_inverse_kin(p[-0.4041263843398922,0.24332544635340295,-0.0022,1.69,1.82,-0.5]),t=0.01)
servoj(get_inverse_kin(p[-0.4040059718247316,0.24339636357116365,-0.0022,1.69,1.82,-0.5]),t=0.01)
servoj(get_inverse_kin(p[-0.40387197439135925,0.24348123188045553,-0.0022,1.69,1.82,-0.5]),t=0.01)
servoj(get_inverse_kin(p[-0.4037361244188416,0.24356610004093734,-0.0022,1.69,1.82,-0.5]),t=0.01)
servoj(get_inverse_kin(p[-0.40360150936703415,0.24365096835022923,-0.0022,1.69,1.82,-0.5]),t=0.01)
servoj(get_inverse_kin(p[-0.4034656593945166,0.24376431964823084,-0.0022,1.69,1.82,-0.5]),t=0.01)
servoj(get_inverse_kin(p[-0.4033156068853522,0.24386372015232138,-0.0022,1.69,1.82,-0.5]),t=0.01)
servoj(get_inverse_kin(p[-0.4031655545342677,0.24397707159913304,-0.0022,1.69,1.82,-0.5]),t=0.01)
servoj(get_inverse_kin(p[-0.4030006820281013,0.2440898416450571,-0.0022,1.69,1.82,-0.5]),t=0.01)
servoj(get_inverse_kin(p[-0.4028351920615799,0.24420319309186878,-0.0022,1.69,1.82,-0.5]),t=0.01)
servoj(get_inverse_kin(p[-0.40267031955541355,0.24431654453868043,-0.0022,1.69,1.82,-0.5]),t=0.01)
servoj(get_inverse_kin(p[-0.4025202670462491,0.24442931458460448,-0.0022,1.69,1.82,-0.5]),t=0.01)
servoj(get_inverse_kin(p[-0.4023541596193726,0.2445426660314162,-0.0022,1.69,1.82,-0.5]),t=0.01)
servoj(get_inverse_kin(p[-0.40220410711020815,0.2446554362261503,-0.0022,1.69,1.82,-0.5]),t=0.01)
servoj(get_inverse_kin(p[-0.4020540547591237,0.24475367407727572,-0.0022,1.69,1.82,-0.5]),t=0.01)
servoj(get_inverse_kin(p[-0.40191943970731625,0.2448536558334438,-0.0022,1.69,1.82,-0.5]),t=0.01)
servoj(get_inverse_kin(p[-0.4017835897347986,0.24492341054704944,-0.0022,1.69,1.82,-0.5]),t=0.01)
servoj(get_inverse_kin(p[-0.40166379483807313,0.24500827870753125,-0.0022,1.69,1.82,-0.5]),t=0.01)
servoj(get_inverse_kin(p[-0.40154338232291253,0.24507977732617953,-0.0022,1.69,1.82,-0.5]),t=0.01)
servoj(get_inverse_kin(p[-0.401439024883544,0.24514953203978515,-0.0022,1.69,1.82,-0.5]),t=0.01)
servoj(get_inverse_kin(p[-0.40134886982274237,0.2452059170627472,-0.0022,1.69,1.82,-0.5]),t=0.01)
servoj(get_inverse_kin(p[-0.40125871492002063,0.24526288348659683,-0.0022,1.69,1.82,-0.5]),t=0.01)
servoj(get_inverse_kin(p[-0.40116732493850876,0.2453343821052451,-0.0022,1.69,1.82,-0.5]),t=0.01)
servoj(get_inverse_kin(p[-0.40109260733506413,0.2453756535325209,-0.0022,1.69,1.82,-0.5]),t=0.01)
servoj(get_inverse_kin(p[-0.4010172724293444,0.24543261995637053,-0.0022,1.69,1.82,-0.5]),t=0.01)
servoj(get_inverse_kin(p[-0.4009425549839797,0.24547563528868896,-0.0022,1.69,1.82,-0.5]),t=0.01)
servoj(get_inverse_kin(p[-0.4008666024598248,0.24553202046046108,-0.0022,1.69,1.82,-0.5]),t=0.01)
servoj(get_inverse_kin(p[-0.40079250247481524,0.24557387328862443,-0.0022,1.69,1.82,-0.5]),t=0.01)
servoj(get_inverse_kin(p[-0.4007165499506604,0.24561688862094289,-0.0022,1.69,1.82,-0.5]),t=0.01)
servoj(get_inverse_kin(p[-0.40064244996565085,0.24565874144910627,-0.0022,1.69,1.82,-0.5]),t=0.01)
servoj(get_inverse_kin(p[-0.4005664974414959,0.2456732736439049,-0.0022,1.69,1.82,-0.5]),t=0.01)
servoj(get_inverse_kin(p[-0.40047634253877423,0.24571512647206828,-0.0022,1.69,1.82,-0.5]),t=0.01)
servoj(get_inverse_kin(p[-0.40040224255376466,0.24574360975839812,-0.0022,1.69,1.82,-0.5]),t=0.01)
servoj(get_inverse_kin(p[-0.400312087492963,0.2457715116438404,-0.0022,1.69,1.82,-0.5]),t=0.01)
servoj(get_inverse_kin(p[-0.4002219325902413,0.24579999478136016,-0.0022,1.69,1.82,-0.5]),t=0.01)
servoj(get_inverse_kin(p[-0.40011572261172756,0.24582847791887996,-0.0022,1.69,1.82,-0.5]),t=0.01)
servoj(get_inverse_kin(p[-0.4000255675509259,0.2458563798043222,-0.0022,1.69,1.82,-0.5]),t=0.01)
servoj(get_inverse_kin(p[-0.39990577265420035,0.24587149340000847,-0.0022,1.69,1.82,-0.5]),t=0.01)
servoj(get_inverse_kin(p[-0.3998014152148318,0.2458993952854507,-0.0022,1.69,1.82,-0.5]),t=0.01)
servoj(get_inverse_kin(p[-0.3996810026996712,0.2459278784229705,-0.0022,1.69,1.82,-0.5]),t=0.01)
servoj(get_inverse_kin(p[-0.39957541018151255,0.2459412481136141,-0.0022,1.69,1.82,-0.5]),t=0.01)
servoj(get_inverse_kin(p[-0.3994407952877851,0.24598426344593252,-0.0022,1.69,1.82,-0.5]),t=0.01)
servoj(get_inverse_kin(p[-0.3993049453152675,0.24601274658345232,-0.0022,1.69,1.82,-0.5]),t=0.01)
servoj(get_inverse_kin(p[-0.39917033026346005,0.2460261162740959,-0.0022,1.69,1.82,-0.5]),t=0.01)
servoj(get_inverse_kin(p[-0.39900484029693867,0.2460691317552244,-0.0022,1.69,1.82,-0.5]),t=0.01)
servoj(get_inverse_kin(p[-0.39887022540321115,0.24609761489274418,-0.0022,1.69,1.82,-0.5]),t=0.01)
servoj(get_inverse_kin(p[-0.39870411781825466,0.24613946772090758,-0.0022,1.69,1.82,-0.5]),t=0.01)
servoj(get_inverse_kin(p[-0.3985398629305234,0.24616736960634983,-0.0022,1.69,1.82,-0.5]),t=0.01)
servoj(get_inverse_kin(p[-0.398359552967,0.24621038493866826,-0.0022,1.69,1.82,-0.5]),t=0.01)
servoj(get_inverse_kin(p[-0.3981934455401235,0.24625223776683164,-0.0022,1.69,1.82,-0.5]),t=0.01)
servoj(get_inverse_kin(p[-0.39801375303695524,0.24630862293860373,-0.0022,1.69,1.82,-0.5]),t=0.01)
servoj(get_inverse_kin(p[-0.397819240536785,0.24635221952299968,-0.0022,1.69,1.82,-0.5]),t=0.01)
servoj(get_inverse_kin(p[-0.3976389305732616,0.2464086046947718,-0.0022,1.69,1.82,-0.5]),t=0.01)
servoj(get_inverse_kin(p[-0.3974425656920262,0.24645045752293518,-0.0022,1.69,1.82,-0.5]),t=0.01)
servoj(get_inverse_kin(p[-0.39724681811306584,0.24650684254589722,-0.0022,1.69,1.82,-0.5]),t=0.01)
servoj(get_inverse_kin(p[-0.3970665081495425,0.24654985787821568,-0.0022,1.69,1.82,-0.5]),t=0.01)
servoj(get_inverse_kin(p[-0.39687199580745225,0.24659171070637906,-0.0022,1.69,1.82,-0.5]),t=0.01)
servoj(get_inverse_kin(p[-0.3966916858439289,0.24663472618750754,-0.0022,1.69,1.82,-0.5]),t=0.01)
servoj(get_inverse_kin(p[-0.39651199334076065,0.24667657901567094,-0.0022,1.69,1.82,-0.5]),t=0.01)
servoj(get_inverse_kin(p[-0.3963156283014452,0.24671959434798935,-0.0022,1.69,1.82,-0.5]),t=0.01)
servoj(get_inverse_kin(p[-0.3961513734137139,0.24676260982911788,-0.0022,1.69,1.82,-0.5]),t=0.01)
servoj(get_inverse_kin(p[-0.39597106345019056,0.24679109296663765,-0.0022,1.69,1.82,-0.5]),t=0.01)
servoj(get_inverse_kin(p[-0.3957907534866672,0.2468189948520799,-0.0022,1.69,1.82,-0.5]),t=0.01)
servoj(get_inverse_kin(p[-0.39561044352314384,0.2468608476802433,-0.0022,1.69,1.82,-0.5]),t=0.01)
servoj(get_inverse_kin(p[-0.3954301335596205,0.24688933081776304,-0.0022,1.69,1.82,-0.5]),t=0.01)
servoj(get_inverse_kin(p[-0.39522018360209327,0.2469172327032053,-0.0022,1.69,1.82,-0.5]),t=0.01)
servoj(get_inverse_kin(p[-0.39502443618121286,0.24694571598953516,-0.0022,1.69,1.82,-0.5]),t=0.01)
servoj(get_inverse_kin(p[-0.3948299236810427,0.24697419912705493,-0.0022,1.69,1.82,-0.5]),t=0.01)
servoj(get_inverse_kin(p[-0.3946193562631604,0.24700210101249717,-0.0022,1.69,1.82,-0.5]),t=0.01)
servoj(get_inverse_kin(p[-0.3944094063056332,0.24701721445937339,-0.0022,1.69,1.82,-0.5]),t=0.01)
servoj(get_inverse_kin(p[-0.394183401272314,0.24704569774570323,-0.0022,1.69,1.82,-0.5]),t=0.01)
servoj(get_inverse_kin(p[-0.3939586313177848,0.24705906728753677,-0.0022,1.69,1.82,-0.5]),t=0.01)
servoj(get_inverse_kin(p[-0.39373262644254553,0.2470735996311455,-0.0022,1.69,1.82,-0.5]),t=0.01)
servoj(get_inverse_kin(p[-0.39350662140922626,0.24708696917297904,-0.0022,1.69,1.82,-0.5]),t=0.01)
servoj(get_inverse_kin(p[-0.39326641399734014,0.24708696917297904,-0.0022,1.69,1.82,-0.5]),t=0.01)
servoj(get_inverse_kin(p[-0.393026206585454,0.24710208276866527,-0.0022,1.69,1.82,-0.5]),t=0.01)
servoj(get_inverse_kin(p[-0.3927859990154879,0.24711545245930888,-0.0022,1.69,1.82,-0.5]),t=0.01)
servoj(get_inverse_kin(p[-0.3925451741432467,0.24713056590618504,-0.0022,1.69,1.82,-0.5]),t=0.01)
servoj(get_inverse_kin(p[-0.3922907641947137,0.24714393559682868,-0.0022,1.69,1.82,-0.5]),t=0.01)
servoj(get_inverse_kin(p[-0.3920351191673906,0.24714393559682868,-0.0022,1.69,1.82,-0.5]),t=0.01)
servoj(get_inverse_kin(p[-0.3917800917585026,0.24715846779162728,-0.0022,1.69,1.82,-0.5]),t=0.01)
servoj(get_inverse_kin(p[-0.3915244468892594,0.24717183748227092,-0.0022,1.69,1.82,-0.5]),t=0.01)
servoj(get_inverse_kin(p[-0.39125398186493443,0.24718695092914708,-0.0022,1.69,1.82,-0.5]),t=0.01)
servoj(get_inverse_kin(p[-0.39099957191640144,0.24718695092914708,-0.0022,1.69,1.82,-0.5]),t=0.01)
servoj(get_inverse_kin(p[-0.39072910705015634,0.2472003206197907,-0.0022,1.69,1.82,-0.5]),t=0.01)
servoj(get_inverse_kin(p[-0.3902184346139452,0.2472003206197907,-0.0022,1.69,1.82,-0.5]),t=0.01)
servoj(get_inverse_kin(p[-0.38997637466291385,0.24718695092914708,-0.0022,1.69,1.82,-0.5]),t=0.01)
servoj(get_inverse_kin(p[-0.3892718073449676,0.24718695092914708,-0.0022,1.69,1.82,-0.5]),t=0.01)
servoj(get_inverse_kin(p[-0.3890612397690053,0.24717183748227092,-0.0022,1.69,1.82,-0.5]),t=0.01)
servoj(get_inverse_kin(p[-0.38885128981147815,0.24717183748227092,-0.0022,1.69,1.82,-0.5]),t=0.01)
servoj(get_inverse_kin(p[-0.3886549249302427,0.24715846779162728,-0.0022,1.69,1.82,-0.5]),t=0.01)
servoj(get_inverse_kin(p[-0.38846041243007245,0.24714393559682868,-0.0022,1.69,1.82,-0.5]),t=0.01)
servoj(get_inverse_kin(p[-0.38826466500919204,0.24713056590618504,-0.0022,1.69,1.82,-0.5]),t=0.01)
servoj(get_inverse_kin(p[-0.38808435504566874,0.24711545245930888,-0.0022,1.69,1.82,-0.5]),t=0.01)
servoj(get_inverse_kin(p[-0.3879200999998575,0.24710208276866527,-0.0022,1.69,1.82,-0.5]),t=0.01)
servoj(get_inverse_kin(p[-0.38773979003633413,0.24708696917297904,-0.0022,1.69,1.82,-0.5]),t=0.01)
servoj(get_inverse_kin(p[-0.38757368260945757,0.24705906728753677,-0.0022,1.69,1.82,-0.5]),t=0.01)
servoj(get_inverse_kin(p[-0.38740942772172626,0.24704569774570323,-0.0022,1.69,1.82,-0.5]),t=0.01)
servoj(get_inverse_kin(p[-0.38724332013676976,0.24701721445937339,-0.0022,1.69,1.82,-0.5]),t=0.01)
servoj(get_inverse_kin(p[-0.3870932677856853,0.24700210101249717,-0.0022,1.69,1.82,-0.5]),t=0.01)
servoj(get_inverse_kin(p[-0.3869432152765209,0.24698873132185362,-0.0022,1.69,1.82,-0.5]),t=0.01)
servoj(get_inverse_kin(p[-0.3867931627673564,0.24696082943641137,-0.0022,1.69,1.82,-0.5]),t=0.01)
servoj(get_inverse_kin(p[-0.38664249279783697,0.24693234629889155,-0.0022,1.69,1.82,-0.5]),t=0.01)
servoj(get_inverse_kin(p[-0.38649244028867247,0.24690386316137175,-0.0022,1.69,1.82,-0.5]),t=0.01)
servoj(get_inverse_kin(p[-0.386342387937588,0.24688933081776304,-0.0022,1.69,1.82,-0.5]),t=0.01)
servoj(get_inverse_kin(p[-0.38620653796507043,0.2468608476802433,-0.0022,1.69,1.82,-0.5]),t=0.01)
servoj(get_inverse_kin(p[-0.386056485455906,0.24683294579480103,-0.0022,1.69,1.82,-0.5]),t=0.01)
servoj(get_inverse_kin(p[-0.38590581548638647,0.24680446265728126,-0.0022,1.69,1.82,-0.5]),t=0.01)
servoj(get_inverse_kin(p[-0.385755762977222,0.24677597951976146,-0.0022,1.69,1.82,-0.5]),t=0.01)
servoj(get_inverse_kin(p[-0.3855915080894907,0.24676260982911788,-0.0022,1.69,1.82,-0.5]),t=0.01)
servoj(get_inverse_kin(p[-0.3854254005045343,0.2467480776343192,-0.0022,1.69,1.82,-0.5]),t=0.01)
servoj(get_inverse_kin(p[-0.38526114561680297,0.24673470794367564,-0.0022,1.69,1.82,-0.5]),t=0.01)
servoj(get_inverse_kin(p[-0.38508083565327955,0.2467044809011132,-0.0022,1.69,1.82,-0.5]),t=0.01)
servoj(get_inverse_kin(p[-0.3849147282264031,0.24669111121046955,-0.0022,1.69,1.82,-0.5]),t=0.01)
servoj(get_inverse_kin(p[-0.3847504731805918,0.24667657901567094,-0.0022,1.69,1.82,-0.5]),t=0.01)
servoj(get_inverse_kin(p[-0.38457016321706844,0.2466632093250273,-0.0022,1.69,1.82,-0.5]),t=0.01)
servoj(get_inverse_kin(p[-0.38440405579019193,0.24664809587815115,-0.0022,1.69,1.82,-0.5]),t=0.01)
servoj(get_inverse_kin(p[-0.38423980074438063,0.2466196125918213,-0.0022,1.69,1.82,-0.5]),t=0.01)
servoj(get_inverse_kin(p[-0.3840897483932962,0.24660624304998777,-0.0022,1.69,1.82,-0.5]),t=0.01)
servoj(get_inverse_kin(p[-0.38392364080833963,0.24660624304998777,-0.0022,1.69,1.82,-0.5]),t=0.01)
servoj(get_inverse_kin(p[-0.3837735884572552,0.24659171070637906,-0.0022,1.69,1.82,-0.5]),t=0.01)
servoj(get_inverse_kin(p[-0.3836235359480908,0.24659171070637906,-0.0022,1.69,1.82,-0.5]),t=0.01)
servoj(get_inverse_kin(p[-0.38348892089628334,0.24657834116454552,-0.0022,1.69,1.82,-0.5]),t=0.01)
servoj(get_inverse_kin(p[-0.38335307092376575,0.24657834116454552,-0.0022,1.69,1.82,-0.5]),t=0.01)
servoj(get_inverse_kin(p[-0.3832184560300383,0.24656322756885923,-0.0022,1.69,1.82,-0.5]),t=0.01)
servoj(get_inverse_kin(p[-0.38309866097523276,0.24654985787821568,-0.0022,1.69,1.82,-0.5]),t=0.01)
servoj(get_inverse_kin(p[-0.38297824861815216,0.24654985787821568,-0.0022,1.69,1.82,-0.5]),t=0.01)
servoj(get_inverse_kin(p[-0.3828726560999935,0.24652137474069588,-0.0022,1.69,1.82,-0.5]),t=0.01)
servoj(get_inverse_kin(p[-0.38278250103919187,0.24650684254589722,-0.0022,1.69,1.82,-0.5]),t=0.01)
servoj(get_inverse_kin(p[-0.38269234613647013,0.24649347285525364,-0.0022,1.69,1.82,-0.5]),t=0.01)
servoj(get_inverse_kin(p[-0.38260219107566845,0.24647835940837742,-0.0022,1.69,1.82,-0.5]),t=0.01)
servoj(get_inverse_kin(p[-0.3825262387095936,0.24645045752293518,-0.0022,1.69,1.82,-0.5]),t=0.01)
servoj(get_inverse_kin(p[-0.38245213872458395,0.24645045752293518,-0.0022,1.69,1.82,-0.5]),t=0.01)
servoj(get_inverse_kin(p[-0.38239224111814124,0.24642197423660533,-0.0022,1.69,1.82,-0.5]),t=0.01)
servoj(get_inverse_kin(p[-0.38231628875206636,0.24639349109908557,-0.0022,1.69,1.82,-0.5]),t=0.01)
servoj(get_inverse_kin(p[-0.3822557736852686,0.24638012140844195,-0.0022,1.69,1.82,-0.5]),t=0.01)
servoj(get_inverse_kin(p[-0.3822119311546179,0.24635221952299968,-0.0022,1.69,1.82,-0.5]),t=0.01)
servoj(get_inverse_kin(p[-0.3821514162459,0.24633710607612352,-0.0022,1.69,1.82,-0.5]),t=0.01)
servoj(get_inverse_kin(p[-0.3820915187975373,0.24630862293860373,-0.0022,1.69,1.82,-0.5]),t=0.01)
servoj(get_inverse_kin(p[-0.3820458237277414,0.24628072105316148,-0.0022,1.69,1.82,-0.5]),t=0.01)
servoj(get_inverse_kin(p[-0.3820013637367356,0.2462673513625179,-0.0022,1.69,1.82,-0.5]),t=0.01)
servoj(get_inverse_kin(p[-0.38194146628837283,0.24625223776683164,-0.0022,1.69,1.82,-0.5]),t=0.01)
servoj(get_inverse_kin(p[-0.3818957712185769,0.24622375462931184,-0.0022,1.69,1.82,-0.5]),t=0.01)
servoj(get_inverse_kin(p[-0.38185131122757116,0.24621038493866826,-0.0022,1.69,1.82,-0.5]),t=0.01)
servoj(get_inverse_kin(p[-0.38180561631585525,0.2461958527438696,-0.0022,1.69,1.82,-0.5]),t=0.01)
servoj(get_inverse_kin(p[-0.38176115632484947,0.24618248305322601,-0.0022,1.69,1.82,-0.5]),t=0.01)
servoj(get_inverse_kin(p[-0.38171546125505357,0.24616736960634983,-0.0022,1.69,1.82,-0.5]),t=0.01)
servoj(get_inverse_kin(p[-0.38167100126404785,0.24615399991570622,-0.0022,1.69,1.82,-0.5]),t=0.01)
servoj(get_inverse_kin(p[-0.3816111038156851,0.24613946772090758,-0.0022,1.69,1.82,-0.5]),t=0.01)
servoj(get_inverse_kin(p[-0.3815654089039691,0.24612609803026397,-0.0022,1.69,1.82,-0.5]),t=0.01)
servoj(get_inverse_kin(p[-0.3815209489129634,0.2461109845833878,-0.0022,1.69,1.82,-0.5]),t=0.01)
servoj(get_inverse_kin(p[-0.3814752538431675,0.24608250129705794,-0.0022,1.69,1.82,-0.5]),t=0.01)
servoj(get_inverse_kin(p[-0.38141535639480467,0.2460691317552244,-0.0022,1.69,1.82,-0.5]),t=0.01)
servoj(get_inverse_kin(p[-0.38135484132800684,0.2460545994116157,-0.0022,1.69,1.82,-0.5]),t=0.01)
servoj(get_inverse_kin(p[-0.3813109989554362,0.24604122986978216,-0.0022,1.69,1.82,-0.5]),t=0.01)
servoj(get_inverse_kin(p[-0.3812504838886383,0.2460261162740959,-0.0022,1.69,1.82,-0.5]),t=0.01)
servoj(get_inverse_kin(p[-0.3812047889769224,0.24601274658345232,-0.0022,1.69,1.82,-0.5]),t=0.01)
servoj(get_inverse_kin(p[-0.38114489137047963,0.24599763313657613,-0.0022,1.69,1.82,-0.5]),t=0.01)
servoj(get_inverse_kin(p[-0.3811004313794739,0.2459697312511339,-0.0022,1.69,1.82,-0.5]),t=0.01)
servoj(get_inverse_kin(p[-0.38105473646775795,0.24595636156049028,-0.0022,1.69,1.82,-0.5]),t=0.01)
servoj(get_inverse_kin(p[-0.38101027647675223,0.2459278784229705,-0.0022,1.69,1.82,-0.5]),t=0.01)
servoj(get_inverse_kin(p[-0.3809645814069563,0.24591276482728425,-0.0022,1.69,1.82,-0.5]),t=0.01)
servoj(get_inverse_kin(p[-0.3809201214159505,0.24588486294184198,-0.0022,1.69,1.82,-0.5]),t=0.01)
servoj(get_inverse_kin(p[-0.38089048142194665,0.2458563798043222,-0.0022,1.69,1.82,-0.5]),t=0.01)
servoj(get_inverse_kin(p[-0.3808602239675878,0.24582847791887996,-0.0022,1.69,1.82,-0.5]),t=0.01)
servoj(get_inverse_kin(p[-0.3808145290558718,0.24579999478136016,-0.0022,1.69,1.82,-0.5]),t=0.01)
servoj(get_inverse_kin(p[-0.3807842714434329,0.24578662509071658,-0.0022,1.69,1.82,-0.5]),t=0.01)
servoj(get_inverse_kin(p[-0.38077006906486605,0.24575814195319678,-0.0022,1.69,1.82,-0.5]),t=0.01)
servoj(get_inverse_kin(p[-0.38073981145242713,0.24573024006775454,-0.0022,1.69,1.82,-0.5]),t=0.01)
servoj(get_inverse_kin(p[-0.3807243739950702,0.24571512647206828,-0.0022,1.69,1.82,-0.5]),t=0.01)
servoj(get_inverse_kin(p[-0.38071017145842334,0.2456866433345485,-0.0022,1.69,1.82,-0.5]),t=0.01)
servoj(get_inverse_kin(p[-0.3806941165407112,0.2456732736439049,-0.0022,1.69,1.82,-0.5]),t=0.01)
servoj(get_inverse_kin(p[-0.3806799140040644,0.24565874144910627,-0.0022,1.69,1.82,-0.5]),t=0.01)
servoj(get_inverse_kin(p[-0.3806799140040644,0.2456302583115865,-0.0022,1.69,1.82,-0.5]),t=0.01)
servoj(get_inverse_kin(p[-0.38066447654670743,0.24561688862094289,-0.0022,1.69,1.82,-0.5]),t=0.01)
servoj(get_inverse_kin(p[-0.38066447654670743,0.2456017751740667,-0.0022,1.69,1.82,-0.5]),t=0.01)
servoj(get_inverse_kin(p[-0.38064965654970545,0.2455884054834231,-0.0022,1.69,1.82,-0.5]),t=0.01)
servoj(get_inverse_kin(p[-0.38064965654970545,0.24551690686477481,-0.0022,1.69,1.82,-0.5]),t=0.01)
servoj(get_inverse_kin(p[-0.38063421909234846,0.24550353717413123,-0.0022,1.69,1.82,-0.5]),t=0.01)
servoj(get_inverse_kin(p[-0.38063421909234846,0.2454471521511692,-0.0022,1.69,1.82,-0.5]),t=0.01)
servoj(get_inverse_kin(p[-0.3806200165557016,0.24541925026572692,-0.0022,1.69,1.82,-0.5]),t=0.01)
servoj(get_inverse_kin(p[-0.3806200165557016,0.2453343821052451,-0.0022,1.69,1.82,-0.5]),t=0.01)
servoj(get_inverse_kin(p[-0.38060396147990955,0.24529078537203908,-0.0022,1.69,1.82,-0.5]),t=0.01)
servoj(get_inverse_kin(p[-0.38060396147990955,0.24513616234914157,-0.0022,1.69,1.82,-0.5]),t=0.01)
servoj(get_inverse_kin(p[-0.3806200165557016,0.24507977732617953,-0.0022,1.69,1.82,-0.5]),t=0.01)
servoj(get_inverse_kin(p[-0.3806200165557016,0.24500827870753125,-0.0022,1.69,1.82,-0.5]),t=0.01)
servoj(get_inverse_kin(p[-0.38063421909234846,0.2449385239939256,-0.0022,1.69,1.82,-0.5]),t=0.01)
servoj(get_inverse_kin(p[-0.38064965654970545,0.24488155771888606,-0.0022,1.69,1.82,-0.5]),t=0.01)
servoj(get_inverse_kin(p[-0.38064965654970545,0.24481005910023776,-0.0022,1.69,1.82,-0.5]),t=0.01)
servoj(get_inverse_kin(p[-0.38066447654670743,0.2447403043866321,-0.0022,1.69,1.82,-0.5]),t=0.01)
servoj(get_inverse_kin(p[-0.3806799140040644,0.2446554362261503,-0.0022,1.69,1.82,-0.5]),t=0.01)
servoj(get_inverse_kin(p[-0.38071017145842334,0.24457056791685844,-0.0022,1.69,1.82,-0.5]),t=0.01)
servoj(get_inverse_kin(p[-0.3807243739950702,0.24448569975637663,-0.0022,1.69,1.82,-0.5]),t=0.01)
servoj(get_inverse_kin(p[-0.380754013989074,0.24440083144708472,-0.0022,1.69,1.82,-0.5]),t=0.01)
servoj(get_inverse_kin(p[-0.38077006906486605,0.24431654453868043,-0.0022,1.69,1.82,-0.5]),t=0.01)
servoj(get_inverse_kin(p[-0.380800326519225,0.24420319309186878,-0.0022,1.69,1.82,-0.5]),t=0.01)
servoj(get_inverse_kin(p[-0.3808299665132288,0.2440898416450571,-0.0022,1.69,1.82,-0.5]),t=0.01)
servoj(get_inverse_kin(p[-0.3808602239675878,0.24397707159913304,-0.0022,1.69,1.82,-0.5]),t=0.01)
servoj(get_inverse_kin(p[-0.38089048142194665,0.24386372015232138,-0.0022,1.69,1.82,-0.5]),t=0.01)
servoj(get_inverse_kin(p[-0.3809201214159505,0.2437509501063973,-0.0022,1.69,1.82,-0.5]),t=0.01)
servoj(get_inverse_kin(p[-0.3809503790283894,0.24362306646478699,-0.0022,1.69,1.82,-0.5]),t=0.01)
servoj(get_inverse_kin(p[-0.3809806364827484,0.2435097150179753,-0.0022,1.69,1.82,-0.5]),t=0.01)
servoj(get_inverse_kin(p[-0.3810244790133991,0.243381831376365,-0.0022,1.69,1.82,-0.5]),t=0.01)
servoj(get_inverse_kin(p[-0.38105473646775795,0.24326847992955333,-0.0022,1.69,1.82,-0.5]),t=0.01)
servoj(get_inverse_kin(p[-0.3811004313794739,0.2431702420784279,-0.0022,1.69,1.82,-0.5]),t=0.01)
servoj(get_inverse_kin(p[-0.38113068899191277,0.24305747188369378,-0.0022,1.69,1.82,-0.5]),t=0.01)
servoj(get_inverse_kin(p[-0.38117453136448354,0.2429441205856922,-0.0022,1.69,1.82,-0.5]),t=0.01)
servoj(get_inverse_kin(p[-0.3812047889769224,0.24284472008160166,-0.0022,1.69,1.82,-0.5]),t=0.01)
servoj(get_inverse_kin(p[-0.3812504838886383,0.24274648223047623,-0.0022,1.69,1.82,-0.5]),t=0.01)
servoj(get_inverse_kin(p[-0.3812807413429973,0.24264650047430816,-0.0022,1.69,1.82,-0.5]),t=0.01)
servoj(get_inverse_kin(p[-0.381325201334003,0.24254826247437267,-0.0022,1.69,1.82,-0.5]),t=0.01)
servoj(get_inverse_kin(p[-0.38135484132800684,0.24246339431389086,-0.0022,1.69,1.82,-0.5]),t=0.01)
servoj(get_inverse_kin(p[-0.38140053639780275,0.24237852600459897,-0.0022,1.69,1.82,-0.5]),t=0.01)
servoj(get_inverse_kin(p[-0.3814449963888085,0.2422942390961947,-0.0022,1.69,1.82,-0.5]),t=0.01)
servoj(get_inverse_kin(p[-0.38149069130052443,0.24220937093571288,-0.0022,1.69,1.82,-0.5]),t=0.01)
servoj(get_inverse_kin(p[-0.38155120636732226,0.2421378723170646,-0.0022,1.69,1.82,-0.5]),t=0.01)
servoj(get_inverse_kin(p[-0.38159504889797297,0.24203963446593918,-0.0022,1.69,1.82,-0.5]),t=0.01)
servoj(get_inverse_kin(p[-0.3816555638066908,0.24196813584729088,-0.0022,1.69,1.82,-0.5]),t=0.01)
servoj(get_inverse_kin(p[-0.38171546125505357,0.24186989799616546,-0.0022,1.69,1.82,-0.5]),t=0.01)
servoj(get_inverse_kin(p[-0.3818352563098591,0.2417001615263918,-0.0022,1.69,1.82,-0.5]),t=0.01)
servoj(get_inverse_kin(p[-0.3819112088340139,0.2416152932170999,-0.0022,1.69,1.82,-0.5]),t=0.01)
servoj(get_inverse_kin(p[-0.3819717237427318,0.24153042505661806,-0.0022,1.69,1.82,-0.5]),t=0.01)
servoj(get_inverse_kin(p[-0.3820458237277414,0.2414455567473262,-0.0022,1.69,1.82,-0.5]),t=0.01)
servoj(get_inverse_kin(p[-0.3821217762518962,0.24136068858684437,-0.0022,1.69,1.82,-0.5]),t=0.01)
servoj(get_inverse_kin(p[-0.3821958762369058,0.24128977122027362,-0.0022,1.69,1.82,-0.5]),t=0.01)
servoj(get_inverse_kin(p[-0.3822557736852686,0.24121943525459044,-0.0022,1.69,1.82,-0.5]),t=0.01)
servoj(get_inverse_kin(p[-0.38231628875206636,0.24113456694529858,-0.0022,1.69,1.82,-0.5]),t=0.01)
servoj(get_inverse_kin(p[-0.38239224111814124,0.24106306847546033,-0.0022,1.69,1.82,-0.5]),t=0.01)
servoj(get_inverse_kin(p[-0.38245213872458395,0.24099331376185473,-0.0022,1.69,1.82,-0.5]),t=0.01)
servoj(get_inverse_kin(p[-0.38251203617294677,0.24092181514320643,-0.0022,1.69,1.82,-0.5]),t=0.01)
servoj(get_inverse_kin(p[-0.38257193362130953,0.2408520604296008,-0.0022,1.69,1.82,-0.5]),t=0.01)
servoj(get_inverse_kin(p[-0.38261639361231525,0.24076719212030892,-0.0022,1.69,1.82,-0.5]),t=0.01)
servoj(get_inverse_kin(p[-0.3826762910606781,0.24068058005478446,-0.0022,1.69,1.82,-0.5]),t=0.01)
servoj(get_inverse_kin(p[-0.38272260359082905,0.2406108253411788,-0.0022,1.69,1.82,-0.5]),t=0.01)
servoj(get_inverse_kin(p[-0.38278250103919187,0.2405393267225305,-0.0022,1.69,1.82,-0.5]),t=0.01)
servoj(get_inverse_kin(p[-0.3828281961089878,0.2404829416995685,-0.0022,1.69,1.82,-0.5]),t=0.01)
servoj(get_inverse_kin(p[-0.3828726560999935,0.24039807353908668,-0.0022,1.69,1.82,-0.5]),t=0.01)
servoj(get_inverse_kin(p[-0.38290229609399734,0.2403416883673146,-0.0022,1.69,1.82,-0.5]),t=0.01)
servoj(get_inverse_kin(p[-0.3829486086241483,0.24027135240163142,-0.0022,1.69,1.82,-0.5]),t=0.01)
servoj(get_inverse_kin(p[-0.382992450996719,0.2402149673786694,-0.0022,1.69,1.82,-0.5]),t=0.01)
servoj(get_inverse_kin(p[-0.38303876352687,0.24015858235570736,-0.0022,1.69,1.82,-0.5]),t=0.01)
servoj(get_inverse_kin(p[-0.3830826060575207,0.24011556687457883,-0.0022,1.69,1.82,-0.5]),t=0.01)
servoj(get_inverse_kin(p[-0.38312891858767173,0.24005860059953926,-0.0022,1.69,1.82,-0.5]),t=0.01)
servoj(get_inverse_kin(p[-0.38315855858167547,0.24000221542776717,-0.0022,1.69,1.82,-0.5]),t=0.01)
servoj(get_inverse_kin(p[-0.3832184560300383,0.2399737322902474,-0.0022,1.69,1.82,-0.5]),t=0.01)
servoj(get_inverse_kin(p[-0.383262916021044,0.23994583040480516,-0.0022,1.69,1.82,-0.5]),t=0.01)
servoj(get_inverse_kin(p[-0.38332281346940683,0.23990397757664178,-0.0022,1.69,1.82,-0.5]),t=0.01)
servoj(get_inverse_kin(p[-0.3833691259995578,0.23986096224432332,-0.0022,1.69,1.82,-0.5]),t=0.01)
servoj(get_inverse_kin(p[-0.3834290234479206,0.23984759255367974,-0.0022,1.69,1.82,-0.5]),t=0.01)
servoj(get_inverse_kin(p[-0.3835031234329302,0.23983247895799348,-0.0022,1.69,1.82,-0.5]),t=0.01)
servoj(get_inverse_kin(p[-0.38359327849373187,0.23981910941615994,-0.0022,1.69,1.82,-0.5]),t=0.01)
servoj(get_inverse_kin(p[-0.38368343339645355,0.2398045770725512,-0.0022,1.69,1.82,-0.5]),t=0.01)
servoj(get_inverse_kin(p[-0.3837735884572552,0.2397912075307177,-0.0022,1.69,1.82,-0.5]),t=0.01)
servoj(get_inverse_kin(p[-0.38387979843576897,0.23977609393503144,-0.0022,1.69,1.82,-0.5]),t=0.01)
servoj(get_inverse_kin(p[-0.3842540032810275,0.23977609393503144,-0.0022,1.69,1.82,-0.5]),t=0.01)
servoj(get_inverse_kin(p[-0.38440405579019193,0.23976272424438785,-0.0022,1.69,1.82,-0.5]),t=0.01)
servoj(get_inverse_kin(p[-0.38473503572323475,0.23976272424438785,-0.0022,1.69,1.82,-0.5]),t=0.01)
servoj(get_inverse_kin(p[-0.3849147282264031,0.23974761079751167,-0.0022,1.69,1.82,-0.5]),t=0.01)
servoj(get_inverse_kin(p[-0.3851252956442854,0.23973424110686806,-0.0022,1.69,1.82,-0.5]),t=0.01)
servoj(get_inverse_kin(p[-0.38533524560181254,0.23971970891206942,-0.0022,1.69,1.82,-0.5]),t=0.01)
servoj(get_inverse_kin(p[-0.38556125047705186,0.2397063392214258,-0.0022,1.69,1.82,-0.5]),t=0.01)
servoj(get_inverse_kin(p[-0.3857718180530141,0.23969122577454963,-0.0022,1.69,1.82,-0.5]),t=0.01)
servoj(get_inverse_kin(p[-0.38601202546490027,0.23967785608390602,-0.0022,1.69,1.82,-0.5]),t=0.01)
servoj(get_inverse_kin(p[-0.38625223287678634,0.23966274248821978,-0.0022,1.69,1.82,-0.5]),t=0.01)
servoj(get_inverse_kin(p[-0.38649244028867247,0.23963484060277754,-0.0022,1.69,1.82,-0.5]),t=0.01)
servoj(get_inverse_kin(p[-0.3867326478586386,0.23960635746525774,-0.0022,1.69,1.82,-0.5]),t=0.01)
servoj(get_inverse_kin(p[-0.3869728552705248,0.23959298777461416,-0.0022,1.69,1.82,-0.5]),t=0.01)
servoj(get_inverse_kin(p[-0.38721368014276597,0.23957845557981547,-0.0022,1.69,1.82,-0.5]),t=0.01)
servoj(get_inverse_kin(p[-0.3874693251700891,0.23953660275165212,-0.0022,1.69,1.82,-0.5]),t=0.01)
servoj(get_inverse_kin(p[-0.38770953258197516,0.23950811961413235,-0.0022,1.69,1.82,-0.5]),t=0.01)
servoj(get_inverse_kin(p[-0.3879645599908632,0.23949358741933366,-0.0022,1.69,1.82,-0.5]),t=0.01)
servoj(get_inverse_kin(p[-0.38820476756082933,0.23946510413300381,-0.0022,1.69,1.82,-0.5]),t=0.01)
servoj(get_inverse_kin(p[-0.38846041243007245,0.2394517345911703,-0.0022,1.69,1.82,-0.5]),t=0.01)
servoj(get_inverse_kin(p[-0.38870123746039364,0.23942325130484046,-0.0022,1.69,1.82,-0.5]),t=0.01)
servoj(get_inverse_kin(p[-0.3889414448722798,0.2393953494193982,-0.0022,1.69,1.82,-0.5]),t=0.01)
servoj(get_inverse_kin(p[-0.3891958548208127,0.2393668662818784,-0.0022,1.69,1.82,-0.5]),t=0.01)
servoj(get_inverse_kin(p[-0.3894360622326989,0.23933838314435862,-0.0022,1.69,1.82,-0.5]),t=0.01)
servoj(get_inverse_kin(p[-0.38967626964458496,0.23931048125891638,-0.0022,1.69,1.82,-0.5]),t=0.01)
servoj(get_inverse_kin(p[-0.3899325321322632,0.23928199812139658,-0.0022,1.69,1.82,-0.5]),t=0.01)
servoj(get_inverse_kin(p[-0.39017273954414927,0.23926688452571035,-0.0022,1.69,1.82,-0.5]),t=0.01)
servoj(get_inverse_kin(p[-0.3904290020318275,0.23925351483506674,-0.0022,1.69,1.82,-0.5]),t=0.01)
servoj(get_inverse_kin(p[-0.39068341198036044,0.2392256129496245,-0.0022,1.69,1.82,-0.5]),t=0.01)
servoj(get_inverse_kin(p[-0.3909396744680387,0.2392104995027483,-0.0022,1.69,1.82,-0.5]),t=0.01)
servoj(get_inverse_kin(p[-0.3911940844165716,0.23919712981210473,-0.0022,1.69,1.82,-0.5]),t=0.01)
servoj(get_inverse_kin(p[-0.3914497292858148,0.23918259761730606,-0.0022,1.69,1.82,-0.5]),t=0.01)
servoj(get_inverse_kin(p[-0.3917047568527828,0.23916922792666248,-0.0022,1.69,1.82,-0.5]),t=0.01)
servoj(get_inverse_kin(p[-0.39196040172202595,0.23915411447978627,-0.0022,1.69,1.82,-0.5]),t=0.01)
servoj(get_inverse_kin(p[-0.3922148116705589,0.23914074478914268,-0.0022,1.69,1.82,-0.5]),t=0.01)
servoj(get_inverse_kin(p[-0.3924710741582371,0.23912563119345642,-0.0022,1.69,1.82,-0.5]),t=0.01)
servoj(get_inverse_kin(p[-0.3927415390244821,0.23911226165162291,-0.0022,1.69,1.82,-0.5]),t=0.01)
servoj(get_inverse_kin(p[-0.39301200404880715,0.23911226165162291,-0.0022,1.69,1.82,-0.5]),t=0.01)
servoj(get_inverse_kin(p[-0.3932818514546972,0.23909772930801418,-0.0022,1.69,1.82,-0.5]),t=0.01)
servoj(get_inverse_kin(p[-0.39356651885758903,0.23908435976618062,-0.0022,1.69,1.82,-0.5]),t=0.01)
servoj(get_inverse_kin(p[-0.39385303879962613,0.23908435976618062,-0.0022,1.69,1.82,-0.5]),t=0.01)
servoj(get_inverse_kin(p[-0.39413894128130816,0.23906924617049438,-0.0022,1.69,1.82,-0.5]),t=0.01)
servoj(get_inverse_kin(p[-0.3947237137025289,0.23906924617049438,-0.0022,1.69,1.82,-0.5]),t=0.01)
servoj(get_inverse_kin(p[-0.3950102336445661,0.23908435976618062,-0.0022,1.69,1.82,-0.5]),t=0.01)
servoj(get_inverse_kin(p[-0.3953103385048149,0.23906924617049438,-0.0022,1.69,1.82,-0.5]),t=0.01)
servoj(get_inverse_kin(p[-0.39559500606578685,0.23908435976618062,-0.0022,1.69,1.82,-0.5]),t=0.01)
